!!!!SEGMENT: pl-wtm--r-995--001-008_krogulski-jozef-wladyslaw--msza-pasterska-agnus.krn
!!!cenid: 18xx:2090
!!!COM: Krogulski, Józef Władysław
!!!COM-rismid: pe30001797
!!!CDT: 1815/10/04-1842/01/09
!!!CNT: Polish
!!!OPR: Msza pasterska
!!!OTL: Agnus
!!!OMV: 008
!!!PDT:
!!!AGN: Sacred; Mass
!!!SMS-siglum: PL-Wtm
!!!SMS-shelfmark: R 995
!!!SMS-shelfwork: 001-008 M
!!!SMS-variant:
!!!SMS-altvar:
!!!NIFC-rismid: 1001083272
!!!URL-scan: http://repozytorium.nifc.pl/skany/pl-wtm-nut--r995
!!!ONB-nifc: UWAGA: części Mszy: 1. Kyrie, 2. Gloria, 3. Graduale, 4. Credo, 5. Offertorium, 6. Sanctus, 7. Benedictus, 8. Agnus Dei, 9. Dona nobis
**kern	**kern	**dynam	**kern	**dynam	**kern	**text	**dynam	**kern	**text	**dynam	**kern	**text	**dynam	**kern	**text	**dynam	**kern	**text	**dynam
*part7	*part7	*part7	*part6	*part6	*part5	*part5	*part5	*part4	*part4	*part4	*part3	*part3	*part3	*part2	*part2	*part2	*part1	*part1	*part1
*staff8	*staff7	*	*staff6	*	*staff5	*staff5	*	*staff4	*staff4	*	*staff3	*staff3	*	*staff2	*staff2	*	*staff1	*staff1	*
*Iorgan	*Iorgan	*	*Ibass	*	*Itenor	*	*	*Isoprn	*	*	*Isoprn	*	*	*Itenor	*	*	*Isoprn	*	*
*I"Organ	*I"Organ	*	*I"Baſso Coro.	*	*I"Tenori Coro.	*	*	*I"Soprano 2. Coro.	*	*	*I"Soprano 1. Coro.	*	*	*I"Solo Tenor	*	*	*I"Solo Sopra	*	*
*clefF4	*clefG2	*	*clefF4	*	*clefG2	*	*	*clefG2	*	*	*clefG2	*	*	*clefG2	*	*	*clefG2	*	*
*k[b-e-a-]	*k[b-e-a-]	*	*k[b-e-a-]	*	*k[b-e-a-]	*	*	*k[b-e-a-]	*	*	*k[b-e-a-]	*	*	*k[b-e-a-]	*	*	*k[b-e-a-]	*	*
*c:	*c:	*	*c:	*	*c:	*	*	*c:	*	*	*c:	*	*	*c:	*	*	*c:	*	*
*M4/4	*M4/4	*	*M4/4	*	*M4/4	*	*	*M4/4	*	*	*M4/4	*	*	*M4/4	*	*	*M4/4	*	*
*met(c)	*met(c)	*	*met(c)	*	*met(c)	*	*	*met(c)	*	*	*met(c)	*	*	*met(c)	*	*	*met(c)	*	*
=1	=1	=1	=1	=1	=1	=1	=1	=1	=1	=1	=1	=1	=1	=1	=1	=1	=1	=1	=1
*^	*	*	*	*	*	*	*	*	*	*	*	*	*	*	*	*	*	*	*
*2\right	*2\right	*	*	*	*	*	*	*	*	*	*	*	*	*	*	*	*	*	*	*
!	!	!	!	!	!	!	!	!	!	!	!	!	!	!	!	!LO:TX:t=P:problem:Nawy głosów sopranu 1 i 2 (chór) pojawiają się w 34 takcie	!	!LO:TX:a:t=P:problem:all\right:global	!	!
!LO:N:vis=2	!	!	!LO:DY:b:rj	!	!	!	!	!	!LO:TX:t=P:problem:w t. 1-33 głos niewidoczny w partyturze	!	!	!LO:TX:t=P:problem:w t. 1-33 głos niewidoczny w partyturze	!	!	!	!	!	!LO:TX:i:a:t=Allo agitato.	!	!
(<8GG/L	2GG\	(<8g/L	f	1r	.	1r	.	.	1ryy	.	.	1ryy	.	.	1r	.	.	1r	.	.
8D/	.	8Bn/	.	.	.	.	.	.	.	.	.	.	.	.	.	.	.	.	.	.
8F/	.	8d/	.	.	.	.	.	.	.	.	.	.	.	.	.	.	.	.	.	.
8G/J)	.	8g/J)	.	.	.	.	.	.	.	.	.	.	.	.	.	.	.	.	.	.
*rep	*rep	*	*	*	*	*	*	*	*	*	*	*	*	*	*	*	*	*	*	*
!LO:N:vis=2	!	!	!	!	!	!	!	!	!	!	!	!	!	!	!	!	!	!	!	!
(<8GG/L	2GG\	(<8a-/L	.	.	.	.	.	.	.	.	.	.	.	.	.	.	.	.	.	.
8D/	.	8B/	.	.	.	.	.	.	.	.	.	.	.	.	.	.	.	.	.	.
8F/	.	8d/	.	.	.	.	.	.	.	.	.	.	.	.	.	.	.	.	.	.
8G/J)	.	8an/J)	.	.	.	.	.	.	.	.	.	.	.	.	.	.	.	.	.	.
*Xrep	*Xrep	*	*	*	*	*	*	*	*	*	*	*	*	*	*	*	*	*	*	*
=2	=2	=2	=2	=2	=2	=2	=2	=2	=2	=2	=2	=2	=2	=2	=2	=2	=2	=2	=2	=2
*rep	*rep	*	*	*	*	*	*	*	*	*	*	*	*	*	*	*	*	*	*	*
!LO:N:vis=2	!	!	!	!	!	!	!	!	!	!	!	!	!	!	!	!	!	!	!	!
(<8GG/L	2GG\	(<8b-X/L	.	1r	.	1r	.	.	1ryy	.	.	1ryy	.	.	1r	.	.	1r	.	.
8D/	.	8d/	.	.	.	.	.	.	.	.	.	.	.	.	.	.	.	.	.	.
8F/	.	8f/	.	.	.	.	.	.	.	.	.	.	.	.	.	.	.	.	.	.
8G/J)	.	8bn/J)	.	.	.	.	.	.	.	.	.	.	.	.	.	.	.	.	.	.
!LO:N:vis=2	!	!	!	!	!	!	!	!	!	!	!	!	!	!	!	!	!	!	!	!
(<8GG/L	2GG\	(>8cc\L	.	.	.	.	.	.	.	.	.	.	.	.	.	.	.	.	.	.
8D/	.	8f\	.	.	.	.	.	.	.	.	.	.	.	.	.	.	.	.	.	.
8F/	.	8b\	.	.	.	.	.	.	.	.	.	.	.	.	.	.	.	.	.	.
8G/J)	.	8dd\J)	.	.	.	.	.	.	.	.	.	.	.	.	.	.	.	.	.	.
*Xrep	*Xrep	*	*	*	*	*	*	*	*	*	*	*	*	*	*	*	*	*	*	*
*v	*v	*	*	*	*	*	*	*	*	*	*	*	*	*	*	*	*	*	*	*
=3	=3	=3	=3	=3	=3	=3	=3	=3	=3	=3	=3	=3	=3	=3	=3	=3	=3	=3	=3
*	*	*	*	*	*	*	*	*	*	*	*	*	*	*8ba	*	*	*	*	*
*^	*	*	*	*	*	*	*	*	*	*	*	*	*	*	*	*	*	*	*
!	!	!	!	!	!	!	!	!	!	!	!	!	!	!	!LO:TX:t=P:problem:partia tenoru solo zapisana w kluczu wiolinowym	!	!	!	!	!
!LO:N:vis=2	!	!	!	!	!	!	!	!	!	!	!	!	!	!	!LO:TX:i:a:t=Solo	!	!LO:DY:a:rj	!	!	!
(<8C/L	2C\	(>8ee-\L	.	1r	.	1r	.	.	1ryy	.	.	1ryy	.	.	(>4.e-\	A-	f	1r	.	.
8E-/	.	8e-\	.	.	.	.	.	.	.	.	.	.	.	.	.	.	.	.	.	.
8G/	.	8g\	.	.	.	.	.	.	.	.	.	.	.	.	.	.	.	.	.	.
8c/J)	.	8dd\J)	.	.	.	.	.	.	.	.	.	.	.	.	8d\)	.	.	.	.	.
*rep	*rep	*	*	*	*	*	*	*	*	*	*	*	*	*	*	*	*	*	*	*
!LO:N:vis=2	!	!	!	!	!	!	!	!	!	!	!	!	!	!	!	!	!	!	!	!
(<8C/L	2C\	(>8cc\L	.	.	.	.	.	.	.	.	.	.	.	.	4c\	-gnus	.	.	.	.
8E-/	.	8e-\	.	.	.	.	.	.	.	.	.	.	.	.	.	.	.	.	.	.
8G/	.	8g\	.	.	.	.	.	.	.	.	.	.	.	.	4r	.	.	.	.	.
8c/J)	.	8bn\J)	.	.	.	.	.	.	.	.	.	.	.	.	.	.	.	.	.	.
*Xrep	*Xrep	*	*	*	*	*	*	*	*	*	*	*	*	*	*	*	*	*	*	*
!!LO:PB:g=original
=4	=4	=4	=4	=4	=4	=4	=4	=4	=4	=4	=4	=4	=4	=4	=4	=4	=4	=4	=4	=4
!LO:N:vis=2	!	!	!	!	!	!	!	!	!	!	!	!	!	!	!	!	!	!	!	!
(<8C/L	2C\	(>8cc\L	.	1r	.	1r	.	.	1ryy	.	.	1ryy	.	.	1r	.	.	1r	.	.
8E-/	.	8e-\	.	.	.	.	.	.	.	.	.	.	.	.	.	.	.	.	.	.
8G/	.	8f#X\	.	.	.	.	.	.	.	.	.	.	.	.	.	.	.	.	.	.
8c/J)	.	8g\J)	.	.	.	.	.	.	.	.	.	.	.	.	.	.	.	.	.	.
*rep	*rep	*	*	*	*	*	*	*	*	*	*	*	*	*	*	*	*	*	*	*
!LO:N:vis=2	!	!	!	!	!	!	!	!	!	!	!	!	!	!	!	!	!	!	!	!
(<8C/L	2C\	(>8a-X\L	.	.	.	.	.	.	.	.	.	.	.	.	.	.	.	.	.	.
8E-/	.	8e-\	.	.	.	.	.	.	.	.	.	.	.	.	.	.	.	.	.	.
8G/	.	8f#\	.	.	.	.	.	.	.	.	.	.	.	.	.	.	.	.	.	.
8c/J)	.	8g\J)	.	.	.	.	.	.	.	.	.	.	.	.	.	.	.	.	.	.
*Xrep	*Xrep	*	*	*	*	*	*	*	*	*	*	*	*	*	*	*	*	*	*	*
=5	=5	=5	=5	=5	=5	=5	=5	=5	=5	=5	=5	=5	=5	=5	=5	=5	=5	=5	=5	=5
*rep	*rep	*	*	*	*	*	*	*	*	*	*	*	*	*	*	*	*	*	*	*
!LO:N:vis=2	!	!	!	!	!	!	!	!	!	!	!	!	!	!	!	!	!	!	!	!
(<8C/L	2C\	(>8ee-\L	.	1r	.	1r	.	.	1ryy	.	.	1ryy	.	.	(>4.g\	A-	.	1r	.	.
8E-/	.	8e-\	.	.	.	.	.	.	.	.	.	.	.	.	.	.	.	.	.	.
8G/	.	8g\	.	.	.	.	.	.	.	.	.	.	.	.	.	.	.	.	.	.
8c/J)	.	8dd\J)	.	.	.	.	.	.	.	.	.	.	.	.	8f\)	.	.	.	.	.
!LO:N:vis=2	!	!	!	!	!	!	!	!	!	!	!	!	!	!	!	!	!	!	!	!
(<8C/L	2C\	(>8cc\L	.	.	.	.	.	.	.	.	.	.	.	.	4e-\	-gnus	.	.	.	.
8E-/	.	8e-\	.	.	.	.	.	.	.	.	.	.	.	.	.	.	.	.	.	.
8G/	.	8g\	.	.	.	.	.	.	.	.	.	.	.	.	4r	.	.	.	.	.
8c/J)	.	8bn\J)	.	.	.	.	.	.	.	.	.	.	.	.	.	.	.	.	.	.
*Xrep	*Xrep	*	*	*	*	*	*	*	*	*	*	*	*	*	*	*	*	*	*	*
=6	=6	=6	=6	=6	=6	=6	=6	=6	=6	=6	=6	=6	=6	=6	=6	=6	=6	=6	=6	=6
*rep	*rep	*	*	*	*	*	*	*	*	*	*	*	*	*	*	*	*	*	*	*
!LO:N:vis=2	!	!	!	!	!	!	!	!	!	!	!	!	!	!	!	!	!	!	!	!
(<8C/L	2C\	(>8cc\L	.	1r	.	1r	.	.	1ryy	.	.	1ryy	.	.	1r	.	.	1r	.	.
8E-/	.	8e-\	.	.	.	.	.	.	.	.	.	.	.	.	.	.	.	.	.	.
8G/	.	8f#X\	.	.	.	.	.	.	.	.	.	.	.	.	.	.	.	.	.	.
8c/J)	.	8g\J)	.	.	.	.	.	.	.	.	.	.	.	.	.	.	.	.	.	.
!LO:N:vis=2	!	!	!	!	!	!	!	!	!	!	!	!	!	!	!	!	!	!	!	!
(<8C/L	2C\	(>8a-X\L	.	.	.	.	.	.	.	.	.	.	.	.	.	.	.	.	.	.
8E-/	.	8e-\	.	.	.	.	.	.	.	.	.	.	.	.	.	.	.	.	.	.
8G/	.	8f#\	.	.	.	.	.	.	.	.	.	.	.	.	.	.	.	.	.	.
8c/J)	.	8g\J)	.	.	.	.	.	.	.	.	.	.	.	.	.	.	.	.	.	.
*Xrep	*Xrep	*	*	*	*	*	*	*	*	*	*	*	*	*	*	*	*	*	*	*
=7	=7	=7	=7	=7	=7	=7	=7	=7	=7	=7	=7	=7	=7	=7	=7	=7	=7	=7	=7	=7
*	*	*	*	*	*	*	*	*	*	*	*	*	*	*	*2\right	*	*	*	*	*
!LO:N:vis=2	!	!	!	!	!	!	!	!	!	!	!	!	!	!	!	!	!	!	!	!
(<8GG/L	2GG\	(>8dd\L	.	1r	.	1r	.	.	1ryy	.	.	1ryy	.	.	(>2f\	A-	.	1r	.	.
8BBn/	.	8f\	.	.	.	.	.	.	.	.	.	.	.	.	.	.	.	.	.	.
8D/	.	8g\	.	.	.	.	.	.	.	.	.	.	.	.	.	.	.	.	.	.
8G/J)	.	8dd\J)	.	.	.	.	.	.	.	.	.	.	.	.	.	.	.	.	.	.
*rep	*rep	*	*	*	*	*	*	*	*	*	*	*	*	*	*	*	*	*	*	*
!LO:N:vis=2	!	!	!	!	!	!	!	!	!	!	!	!	!	!	!	!	!	!	!	!
(<8GG/L	2GG\	(>8ee-\L	.	.	.	.	.	.	.	.	.	.	.	.	4g\	.	.	.	.	.
8BBn/	.	8g\	.	.	.	.	.	.	.	.	.	.	.	.	.	.	.	.	.	.
8D/	.	8f\	.	.	.	.	.	.	.	.	.	.	.	.	4f\	.	.	.	.	.
8G/J)	.	8dd\J)	.	.	.	.	.	.	.	.	.	.	.	.	.	.	.	.	.	.
*Xrep	*Xrep	*	*	*	*	*	*	*	*	*	*	*	*	*	*	*	*	*	*	*
=8	=8	=8	=8	=8	=8	=8	=8	=8	=8	=8	=8	=8	=8	=8	=8	=8	=8	=8	=8	=8
!LO:N:vis=2	!	!	!	!	!	!	!	!	!	!	!	!	!	!	!	!	!	!	!	!
(<8GG/L	2GG\	(>8cc\L	.	1r	.	1r	.	.	1ryy	.	.	1ryy	.	.	2e-\)	.	.	1r	.	.
8C/	.	8e-\	.	.	.	.	.	.	.	.	.	.	.	.	.	.	.	.	.	.
8E-/	.	8g\	.	.	.	.	.	.	.	.	.	.	.	.	.	.	.	.	.	.
8G/J)	.	8cc\J)	.	.	.	.	.	.	.	.	.	.	.	.	.	.	.	.	.	.
!LO:N:vis=2	!	!	!	!	!	!	!	!	!	!	!	!	!	!	!	!	!	!	!	!
(<8FF/L	2FF\	(>8dd\L	.	.	.	.	.	.	.	.	.	.	.	.	2f\	-gnus	.	.	.	.
8AA-/	.	8f\	.	.	.	.	.	.	.	.	.	.	.	.	.	.	.	.	.	.
8D/	.	8a-\	.	.	.	.	.	.	.	.	.	.	.	.	.	.	.	.	.	.
8F/J)	.	8dd\J)	.	.	.	.	.	.	.	.	.	.	.	.	.	.	.	.	.	.
=9	=9	=9	=9	=9	=9	=9	=9	=9	=9	=9	=9	=9	=9	=9	=9	=9	=9	=9	=9	=9
!LO:N:vis=2	!	!	!	!	!	!	!	!	!	!	!	!	!	!	!	!	!	!	!	!
(<8GG/L	2GG\	(>8cc\L	.	1r	.	1r	.	.	1ryy	.	.	1ryy	.	.	(>2c\	De-	.	1r	.	.
8C/	.	8e-\	.	.	.	.	.	.	.	.	.	.	.	.	.	.	.	.	.	.
8E-/	.	8g\	.	.	.	.	.	.	.	.	.	.	.	.	.	.	.	.	.	.
8G/J)	.	8cc\J)	.	.	.	.	.	.	.	.	.	.	.	.	.	.	.	.	.	.
.	.	.	.	.	.	.	.	.	.	.	.	.	.	.	16qqd/LL	.	.	.	.	.
.	.	.	.	.	.	.	.	.	.	.	.	.	.	.	16qqc/	.	.	.	.	.
.	.	.	.	.	.	.	.	.	.	.	.	.	.	.	16qqBn/	.	.	.	.	.
.	.	.	.	.	.	.	.	.	.	.	.	.	.	.	16qqc/JJ	.	.	.	.	.
!LO:N:vis=2	!	!	!	!	!	!	!	!	!	!	!	!	!	!	!	!	!	!	!	!
(<8GG/L	2GG\	(>8ee-\L	.	.	.	.	.	.	.	.	.	.	.	.	4e-^>\	.	.	.	.	.
8BBn/	.	8g\	.	.	.	.	.	.	.	.	.	.	.	.	.	.	.	.	.	.
8D/	.	8f\	.	.	.	.	.	.	.	.	.	.	.	.	4d\)	.	.	.	.	.
8G/J)	.	8dd\J)	.	.	.	.	.	.	.	.	.	.	.	.	.	.	.	.	.	.
=10	=10	=10	=10	=10	=10	=10	=10	=10	=10	=10	=10	=10	=10	=10	=10	=10	=10	=10	=10	=10
!LO:N:vis=2	!	!	!	!	!	!	!	!	!	!	!	!	!	!	!	!	!	!	!	!
(<8C/L	2C\	(>8cc\L	.	1r	.	1r	.	.	1ryy	.	.	1ryy	.	.	4c\	-i	.	1r	.	.
8E-/	.	8e-\	.	.	.	.	.	.	.	.	.	.	.	.	.	.	.	.	.	.
8G/	.	8g\	.	.	.	.	.	.	.	.	.	.	.	.	4r	.	.	.	.	.
8c/J)	.	8bn\J)	.	.	.	.	.	.	.	.	.	.	.	.	.	.	.	.	.	.
*rep	*rep	*	*	*	*	*	*	*	*	*	*	*	*	*	*	*	*	*	*	*
!LO:N:vis=2	!	!	!	!	!	!	!	!	!	!	!	!	!	!	!	!	!	!	!	!
(<8C/L	2C\	(>8cc\L	.	.	.	.	.	.	.	.	.	.	.	.	4r	.	.	.	.	.
8E-/	.	8g\	.	.	.	.	.	.	.	.	.	.	.	.	.	.	.	.	.	.
8G/	.	8cc\	.	.	.	.	.	.	.	.	.	.	.	.	4c\	qui	.	.	.	.
8c/J)	.	8dd\J)	.	.	.	.	.	.	.	.	.	.	.	.	.	.	.	.	.	.
*Xrep	*Xrep	*	*	*	*	*	*	*	*	*	*	*	*	*	*	*	*	*	*	*
=11	=11	=11	=11	=11	=11	=11	=11	=11	=11	=11	=11	=11	=11	=11	=11	=11	=11	=11	=11	=11
!LO:N:vis=2	!	!	!	!	!	!	!	!	!	!	!	!	!	!	!	!	!	!	!	!
(<8C/L	2C\	(>8een\L	.	1r	.	1r	.	.	1ryy	.	.	1ryy	.	.	(>4.en\	tol-	.	1r	.	.
8En/	.	8g\	.	.	.	.	.	.	.	.	.	.	.	.	.	.	.	.	.	.
8G/	.	8cc\	.	.	.	.	.	.	.	.	.	.	.	.	.	.	.	.	.	.
8B-X/J)	.	8dd#X\J)	.	.	.	.	.	.	.	.	.	.	.	.	8d#X\)	.	.	.	.	.
*rep	*rep	*	*	*	*	*	*	*	*	*	*	*	*	*	*	*	*	*	*	*
!LO:N:vis=2	!	!	!	!	!	!	!	!	!	!	!	!	!	!	!	!	!	!	!	!
(<8C/L	2C\	(>8ee\L	.	.	.	.	.	.	.	.	.	.	.	.	4e\	-lis	.	.	.	.
8En/	.	8cc\	.	.	.	.	.	.	.	.	.	.	.	.	.	.	.	.	.	.
8G/	.	8ff\	.	.	.	.	.	.	.	.	.	.	.	.	4f\	pec-	.	.	.	.
8B-X/J)	.	8cc\J)	.	.	.	.	.	.	.	.	.	.	.	.	.	.	.	.	.	.
*Xrep	*Xrep	*	*	*	*	*	*	*	*	*	*	*	*	*	*	*	*	*	*	*
=12	=12	=12	=12	=12	=12	=12	=12	=12	=12	=12	=12	=12	=12	=12	=12	=12	=12	=12	=12	=12
*rep	*rep	*	*	*	*	*	*	*	*	*	*	*	*	*	*	*	*	*	*	*
!LO:N:vis=2	!	!	!	!	!	!	!	!	!	!	!	!	!	!	!	!	!	!	!	!
(<8C/L	2C\	(>8gg\L	.	1r	.	1r	.	.	1ryy	.	.	1ryy	.	.	(>4g\	-ca-	.	1r	.	.
8En/	.	8een\	.	.	.	.	.	.	.	.	.	.	.	.	.	.	.	.	.	.
8G/	.	8cc\	.	.	.	.	.	.	.	.	.	.	.	.	4c\	.	.	.	.	.
8B-X/J)	.	8g\J)	.	.	.	.	.	.	.	.	.	.	.	.	.	.	.	.	.	.
!LO:N:vis=2	!	!	!	!	!	!	!	!	!	!	!	!	!	!	!	!	!	!	!	!
(<8C/L	2C\	(>8bn\L	.	.	.	.	.	.	.	.	.	.	.	.	4d\)	-ta	.	.	.	.
8En/	.	8dd\	.	.	.	.	.	.	.	.	.	.	.	.	.	.	.	.	.	.
8G/	.	8b-X\	.	.	.	.	.	.	.	.	.	.	.	.	4en\	.	.	.	.	.
8B-X/J)	.	8een\J)	.	.	.	.	.	.	.	.	.	.	.	.	.	.	.	.	.	.
*Xrep	*Xrep	*	*	*	*	*	*	*	*	*	*	*	*	*	*	*	*	*	*	*
!!LO:LB:g=original
=13	=13	=13	=13	=13	=13	=13	=13	=13	=13	=13	=13	=13	=13	=13	=13	=13	=13	=13	=13	=13
!LO:N:vis=2	!	!	!	!	!	!	!	!	!	!	!	!	!	!	!	!	!	!	!	!
(<8FF/L	2FF\	(>8a-\L	.	1r	.	1r	.	.	1ryy	.	.	1ryy	.	.	1f	mun-	.	1r	.	.
8AA-/	.	8ff\	.	.	.	.	.	.	.	.	.	.	.	.	.	.	.	.	.	.
8C/	.	8bn\	.	.	.	.	.	.	.	.	.	.	.	.	.	.	.	.	.	.
8F/J)	.	8cc\J)	.	.	.	.	.	.	.	.	.	.	.	.	.	.	.	.	.	.
*rep	*rep	*	*	*	*	*	*	*	*	*	*	*	*	*	*	*	*	*	*	*
!LO:N:vis=2	!	!	!	!	!	!	!	!	!	!	!	!	!	!	!	!	!	!	!	!
(<8FF/L	2FF\	(>8dd-X\L	.	.	.	.	.	.	.	.	.	.	.	.	.	.	.	.	.	.
8AA-/	.	8cc\	.	.	.	.	.	.	.	.	.	.	.	.	.	.	.	.	.	.
8C/	.	8aa-\	.	.	.	.	.	.	.	.	.	.	.	.	.	.	.	.	.	.
8F/J)	.	8ff\J)	.	.	.	.	.	.	.	.	.	.	.	.	.	.	.	.	.	.
*Xrep	*Xrep	*	*	*	*	*	*	*	*	*	*	*	*	*	*	*	*	*	*	*
=14	=14	=14	=14	=14	=14	=14	=14	=14	=14	=14	=14	=14	=14	=14	=14	=14	=14	=14	=14	=14
*rep	*rep	*	*	*	*	*	*	*	*	*	*	*	*	*	*	*	*	*	*	*
!LO:N:vis=2	!	!	!	!	!	!	!	!	!	!	!	!	!	!	!	!	!	!	!	!
(<8FF/L	2FF\	(>8cc\L	.	1r	.	1r	.	.	1ryy	.	.	1ryy	.	.	4F/	-di	.	1r	.	.
8AA-/	.	8ff\	.	.	.	.	.	.	.	.	.	.	.	.	.	.	.	.	.	.
8C/	.	8bn\	.	.	.	.	.	.	.	.	.	.	.	.	4r	.	.	.	.	.
8F/J)	.	8cc\J)	.	.	.	.	.	.	.	.	.	.	.	.	.	.	.	.	.	.
!LO:N:vis=2	!	!	!	!	!	!	!	!	!	!	!	!	!	!	!	!	!	!	!	!
(<8FF/L	2FF\	(>8ff\L	.	.	.	.	.	.	.	.	.	.	.	.	4r	.	.	.	.	.
8AA-/	.	8cc\	.	.	.	.	.	.	.	.	.	.	.	.	.	.	.	.	.	.
8C/	.	8a-\	.	.	.	.	.	.	.	.	.	.	.	.	4f\	qui	.	.	.	.
8F/J)	.	8f\J)	.	.	.	.	.	.	.	.	.	.	.	.	.	.	.	.	.	.
*Xrep	*Xrep	*	*	*	*	*	*	*	*	*	*	*	*	*	*	*	*	*	*	*
=15	=15	=15	=15	=15	=15	=15	=15	=15	=15	=15	=15	=15	=15	=15	=15	=15	=15	=15	=15	=15
!LO:N:vis=2	!	!	!	!	!	!	!	!	!	!	!	!	!	!	!	!	!	!	!	!
(<8GG/L	2GG\	(>8e-\L	.	1r	.	1r	.	.	1ryy	.	.	1ryy	.	.	2e-\	tol-	.	1r	.	.
8C/	.	8ee-\	.	.	.	.	.	.	.	.	.	.	.	.	.	.	.	.	.	.
8E-/	.	8g\	.	.	.	.	.	.	.	.	.	.	.	.	.	.	.	.	.	.
8G/J)	.	8e-\J)	.	.	.	.	.	.	.	.	.	.	.	.	.	.	.	.	.	.
*rep	*rep	*	*	*	*	*	*	*	*	*	*	*	*	*	*	*	*	*	*	*
!LO:N:vis=2	!	!	!	!	!	!	!	!	!	!	!	!	!	!	!	!	!	!	!	!
(<8GG/L	2GG\	(>8bn\L	.	.	.	.	.	.	.	.	.	.	.	.	4d\	-lis	.	.	.	.
8C/	.	8e-\	.	.	.	.	.	.	.	.	.	.	.	.	.	.	.	.	.	.
8E-/	.	8g\	.	.	.	.	.	.	.	.	.	.	.	.	4c\	pec-	.	.	.	.
8G/J)	.	8cc\J)	.	.	.	.	.	.	.	.	.	.	.	.	.	.	.	.	.	.
*Xrep	*Xrep	*	*	*	*	*	*	*	*	*	*	*	*	*	*	*	*	*	*	*
=16	=16	=16	=16	=16	=16	=16	=16	=16	=16	=16	=16	=16	=16	=16	=16	=16	=16	=16	=16	=16
!LO:N:vis=2	!	!	!	!	!	!	!	!	!	!	!	!	!	!	!	!	!	!	!	!
(<8FF#X/L	2FF#\	(>8e-\L	.	1r	.	1r	.	.	1ryy	.	.	1ryy	.	.	(>2e-\	-ca-	.	1r	.	.
8C/	.	8ee-\	.	.	.	.	.	.	.	.	.	.	.	.	.	.	.	.	.	.
8E-/	.	8an\	.	.	.	.	.	.	.	.	.	.	.	.	.	.	.	.	.	.
8F#X/J)	.	8e-\J)	.	.	.	.	.	.	.	.	.	.	.	.	.	.	.	.	.	.
*rep	*rep	*	*	*	*	*	*	*	*	*	*	*	*	*	*	*	*	*	*	*
!LO:N:vis=2	!	!	!	!	!	!	!	!	!	!	!	!	!	!	!	!	!	!	!	!
(<8FF#X/L	2FF#X\	(>8bn\L	.	.	.	.	.	.	.	.	.	.	.	.	4d\)	.	.	.	.	.
8C/	.	8e-\	.	.	.	.	.	.	.	.	.	.	.	.	.	.	.	.	.	.
8E-/	.	8a\	.	.	.	.	.	.	.	.	.	.	.	.	4c\	-ta	.	.	.	.
8F#X/J)	.	8cc\J)	.	.	.	.	.	.	.	.	.	.	.	.	.	.	.	.	.	.
*Xrep	*Xrep	*	*	*	*	*	*	*	*	*	*	*	*	*	*	*	*	*	*	*
=17	=17	=17	=17	=17	=17	=17	=17	=17	=17	=17	=17	=17	=17	=17	=17	=17	=17	=17	=17	=17
!LO:N:vis=2	!	!	!	!	!	!	!	!	!	!	!	!	!	!	!	!	!	!	!	!
(<8GG/L	2GG\	(>8bn\L	.	1r	.	1r	.	.	1ryy	.	.	1ryy	.	.	1Bn	mun-	.	1r	.	.
8BBn/	.	8g\	.	.	.	.	.	.	.	.	.	.	.	.	.	.	.	.	.	.
8D/	.	8f#X\	.	.	.	.	.	.	.	.	.	.	.	.	.	.	.	.	.	.
8G/J)	.	8g\J)	.	.	.	.	.	.	.	.	.	.	.	.	.	.	.	.	.	.
*rep	*rep	*	*	*	*	*	*	*	*	*	*	*	*	*	*	*	*	*	*	*
!LO:N:vis=2	!	!	!	!	!	!	!	!	!	!	!	!	!	!	!	!	!	!	!	!
(<8GG/L	2GG\	(>8b\L	.	.	.	.	.	.	.	.	.	.	.	.	.	.	.	.	.	.
8BBnX/	.	8g\	.	.	.	.	.	.	.	.	.	.	.	.	.	.	.	.	.	.
8D/	.	8dd\	.	.	.	.	.	.	.	.	.	.	.	.	.	.	.	.	.	.
8G/J)	.	8b\J)	.	.	.	.	.	.	.	.	.	.	.	.	.	.	.	.	.	.
*Xrep	*Xrep	*	*	*	*	*	*	*	*	*	*	*	*	*	*	*	*	*	*	*
=18	=18	=18	=18	=18	=18	=18	=18	=18	=18	=18	=18	=18	=18	=18	=18	=18	=18	=18	=18	=18
*	*	*	*	*	*	*^	*	*	*	*	*	*	*	*	*	*	*	*	*	*
*rep	*rep	*	*	*	*	*	*	*	*	*	*	*	*	*	*	*	*	*	*	*	*
!LO:N:vis=2	!	!	!	!	!	!	!	!	!	!	!	!	!	!	!	!	!	!	!	!	!
(<8GG/L	2GG\	(>8gg\L	.	2r	.	2r	2ryy	.	.	1ryy	.	.	1ryy	.	.	4d\	-di	.	1r	.	.
8BBn/	.	8dd\	.	.	.	.	.	.	.	.	.	.	.	.	.	.	.	.	.	.	.
!	!	!	!LO:DY:b	!	!	!	!	!	!	!	!	!	!	!	!	!	!	!	!	!	!
8D/	.	8bn\	pp	.	.	.	.	.	.	.	.	.	.	.	.	4r	.	.	.	.	.
8G/J)	.	8dd\J)	.	.	.	.	.	.	.	.	.	.	.	.	.	.	.	.	.	.	.
*	*	*	*	*2\right	*	*2\right	*2\right	*	*	*	*	*	*	*	*	*	*	*	*	*	*
*	*	*	*	*	*	*8ba	*	*	*	*	*	*	*	*	*	*	*	*	*	*	*
!LO:N:vis=2	!	!	!	!	!LO:DY:b:rj	!LO:TX:t=P:problem:partia tenoru zapisana w kluczu wiolinowym	!	!	!LO:DY:b:rj	!	!	!	!	!	!	!	!	!	!	!	!
(<8GG/L	2GG\	(>8g\L	.	4G\	pp	4G/	4G\	mi-	pp	.	.	.	.	.	.	2r	.	.	.	.	.
8BBnX/	.	8b\	.	.	.	.	.	.	.	.	.	.	.	.	.	.	.	.	.	.	.
8D/	.	8d\	.	4G\	.	4G/	4G\	-se-	.	.	.	.	.	.	.	.	.	.	.	.	.
8G/J)	.	8g\J)	.	.	.	.	.	.	.	.	.	.	.	.	.	.	.	.	.	.	.
*Xrep	*Xrep	*	*	*	*	*	*	*	*	*	*	*	*	*	*	*	*	*	*	*	*
=19	=19	=19	=19	=19	=19	=19	=19	=19	=19	=19	=19	=19	=19	=19	=19	=19	=19	=19	=19	=19	=19
!LO:N:vis=2	!	!	!	!	!	!	!	!	!LO:HP:a:t=cres	!	!	!	!	!	!	!	!	!	!	!	!
(<8GG/L	2GG\	(<8Bn/L	.	1A-	.	1A-	1A-	-re-	<	1ryy	.	.	1ryy	.	.	1r	.	.	1r	.	.
8BBn/	.	8d/	.	.	.	.	.	.	.	.	.	.	.	.	.	.	.	.	.	.	.
8D/	.	8f/	.	.	.	.	.	.	.	.	.	.	.	.	.	.	.	.	.	.	.
8F/J)	.	8a-X/J)	.	.	.	.	.	.	.	.	.	.	.	.	.	.	.	.	.	.	.
*rep	*rep	*rep	*	*	*	*	*	*	*	*	*	*	*	*	*	*	*	*	*	*	*
!LO:N:vis=2	!	!	!	!	!	!	!	!	!	!	!	!	!	!	!	!	!	!	!	!	!
(<8GG/L	2GG\	(<8BnX/L	.	.	.	.	.	.	.	.	.	.	.	.	.	.	.	.	.	.	.
8BBnX/	.	8d/	.	.	.	.	.	.	.	.	.	.	.	.	.	.	.	.	.	.	.
8D/	.	8f/	.	.	.	.	.	.	.	.	.	.	.	.	.	.	.	.	.	.	.
8F/J)	.	8a-X/J)	.	.	.	.	.	.	.	.	.	.	.	.	.	.	.	.	.	.	.
*Xrep	*Xrep	*Xrep	*	*	*	*	*	*	*	*	*	*	*	*	*	*	*	*	*	*	*
=20	=20	=20	=20	=20	=20	=20	=20	=20	=20	=20	=20	=20	=20	=20	=20	=20	=20	=20	=20	=20	=20
*rep	*rep	*rep	*	*	*	*	*	*	*	*	*	*	*	*	*	*	*	*	*	*	*
!LO:N:vis=2	!	!	!	!	!	!	!	!	!	!	!	!	!	!	!	!	!	!	!	!	!
(<8GG/L	2GG\	(<8Bn/L	.	2A-\	.	2A-/	2A-\	-re	.	1ryy	.	.	1ryy	.	.	1r	.	.	1r	.	.
8BBn/	.	8d/	.	.	.	.	.	.	.	.	.	.	.	.	.	.	.	.	.	.	.
8D/	.	8f/	.	.	.	.	.	.	.	.	.	.	.	.	.	.	.	.	.	.	.
8F/J)	.	8a-X/J)	.	.	.	.	.	.	.	.	.	.	.	.	.	.	.	.	.	.	.
!LO:N:vis=2	!	!	!	!	!	!	!	!	!	!	!	!	!	!	!	!	!	!	!	!	!
(<8GG/L	2GG\	(<8BnX/L	.	4A-\	.	4A-/	4A-\	mi-	.	.	.	.	.	.	.	.	.	.	.	.	.
8BBnX/	.	8d/	.	.	.	.	.	.	.	.	.	.	.	.	.	.	.	.	.	.	.
8D/	.	8f/	.	4A-\	.	4A-/	4A-\	-se-	.	.	.	.	.	.	.	.	.	.	.	.	.
8F/J)	.	8a-X/J)	.	.	.	.	.	.	.	.	.	.	.	.	.	.	.	.	.	.	.
*Xrep	*Xrep	*Xrep	*	*	*	*	*	*	*	*	*	*	*	*	*	*	*	*	*	*	*
=21	=21	=21	=21	=21	=21	=21	=21	=21	=21	=21	=21	=21	=21	=21	=21	=21	=21	=21	=21	=21	=21
!LO:N:vis=2	!	!	!	!	!	!	!	!	!	!	!	!	!	!	!	!	!	!	!	!	!
(<8GG/L	2GG\	(<8c/L	.	1An	.	1An	1A	-re-	.	1ryy	.	.	1ryy	.	.	1r	.	.	1r	.	.
8C/	.	8e-/	.	.	.	.	.	.	.	.	.	.	.	.	.	.	.	.	.	.	.
8E-/	.	8f#X/	.	.	.	.	.	.	.	.	.	.	.	.	.	.	.	.	.	.	.
8F#X/J)	.	8an/J)	.	.	.	.	.	.	.	.	.	.	.	.	.	.	.	.	.	.	.
*rep	*rep	*rep	*	*	*	*	*	*	*	*	*	*	*	*	*	*	*	*	*	*	*
!LO:N:vis=2	!	!	!	!	!	!	!	!	!	!	!	!	!	!	!	!	!	!	!	!	!
(<8GG/L	2GG\	(<8c/L	.	.	.	.	.	.	.	.	.	.	.	.	.	.	.	.	.	.	.
8C/	.	8e-/	.	.	.	.	.	.	.	.	.	.	.	.	.	.	.	.	.	.	.
8E-/	.	8f#X/	.	.	.	.	.	.	.	.	.	.	.	.	.	.	.	.	.	.	.
8F#X/J)	.	8anX/J)	.	.	.	.	.	.	.	.	.	.	.	.	.	.	.	.	.	.	.
*Xrep	*Xrep	*Xrep	*	*	*	*	*	*	*	*	*	*	*	*	*	*	*	*	*	*	*
=22	=22	=22	=22	=22	=22	=22	=22	=22	=22	=22	=22	=22	=22	=22	=22	=22	=22	=22	=22	=22	=22
*rep	*rep	*rep	*	*	*	*	*	*	*	*	*	*	*	*	*	*	*	*	*	*	*
!LO:N:vis=2	!	!	!	!	!	!	!	!	!	!	!	!	!	!	!	!	!	!	!	!	!
(<8GG/L	2GG\	(<8c/L	.	2An\	.	2An/	2An\	-re	.	1ryy	.	.	1ryy	.	.	1r	.	.	1r	.	.
8C/	.	8e-/	.	.	.	.	.	.	.	.	.	.	.	.	.	.	.	.	.	.	.
!	!	!	!LO:HP:b:t=cres&colon;	!	!	!	!	!	!	!	!	!	!	!	!	!	!	!	!	!	!
8E-/	.	8f#X/	<	.	.	.	.	.	.	.	.	.	.	.	.	.	.	.	.	.	.
8F#X/J)	.	8an/J)	.	.	.	.	.	.	.	.	.	.	.	.	.	.	.	.	.	.	.
!LO:N:vis=2	!	!	!	!	!	!	!	!	!	!	!	!	!	!	!	!	!	!	!	!	!
(<8GG/L	2GG\	(<8c/L	.	4A\	.	4A/	4A\	mi-	.	.	.	.	.	.	.	.	.	.	.	.	.
8C/	.	8e-/	.	.	.	.	.	.	.	.	.	.	.	.	.	.	.	.	.	.	.
8E-/	.	8f#X/	.	4A\	.	4A/	4A\	-se-	.	.	.	.	.	.	.	.	.	.	.	.	.
8F#X/J)	.	8anX/J)	.	.	.	.	.	.	.	.	.	.	.	.	.	.	.	.	.	.	.
*Xrep	*Xrep	*Xrep	*	*	*	*	*	*	*	*	*	*	*	*	*	*	*	*	*	*	*
!!LO:PB:g=original
=23	=23	=23	=23	=23	=23	=23	=23	=23	=23	=23	=23	=23	=23	=23	=23	=23	=23	=23	=23	=23	=23
!LO:N:vis=2	!	!	!	!	!	!	!	!	!	!	!	!	!	!	!	!	!	!	!	!	!
(<8GG/L	2GG\	(<8c#X/L	.	1B-	.	1B-	1B-	-re-	.	1ryy	.	.	1ryy	.	.	1r	.	.	1r	.	.
8BB-/	.	8en/	.	.	.	.	.	.	.	.	.	.	.	.	.	.	.	.	.	.	.
8C#X/	.	8g/	.	.	.	.	.	.	.	.	.	.	.	.	.	.	.	.	.	.	.
8En/J)	.	8b-/J)	.	.	.	.	.	.	.	.	.	.	.	.	.	.	.	.	.	.	.
*rep	*rep	*rep	*	*	*	*	*	*	*	*	*	*	*	*	*	*	*	*	*	*	*
!LO:N:vis=2	!	!	!	!	!	!	!	!	!	!	!	!	!	!	!	!	!	!	!	!	!
(<8GG/L	2GG\	(<8c#X/L	.	.	.	.	.	.	.	.	.	.	.	.	.	.	.	.	.	.	.
8BB-X/	.	8enX/	.	.	.	.	.	.	.	.	.	.	.	.	.	.	.	.	.	.	.
8C#X/	.	8g/	.	.	.	.	.	.	.	.	.	.	.	.	.	.	.	.	.	.	.
8E/J)	.	8b-/J)	.	.	.	.	.	.	.	.	.	.	.	.	.	.	.	.	.	.	.
*Xrep	*Xrep	*Xrep	*	*	*	*	*	*	*	*	*	*	*	*	*	*	*	*	*	*	*
=24	=24	=24	=24	=24	=24	=24	=24	=24	=24	=24	=24	=24	=24	=24	=24	=24	=24	=24	=24	=24	=24
*rep	*rep	*rep	*	*	*	*	*	*	*	*	*	*	*	*	*	*	*	*	*	*	*
!LO:N:vis=2	!	!	!	!	!	!	!	!	!	!	!	!	!	!	!	!	!	!	!	!	!
(<8GG/L	2GG\	(<8c#X/L	.	2B-\	.	2B-/	2B-\	-re	.	1ryy	.	.	1ryy	.	.	1r	.	.	1r	.	.
8BB-/	.	8en/	.	.	.	.	.	.	.	.	.	.	.	.	.	.	.	.	.	.	.
8C#X/	.	8g/	.	.	.	.	.	.	.	.	.	.	.	.	.	.	.	.	.	.	.
8En/J)	.	8b-/J)	.	.	.	.	.	.	.	.	.	.	.	.	.	.	.	.	.	.	.
!LO:N:vis=2	!	!	!	!	!	!	!	!	!	!	!	!	!	!	!	!	!	!	!	!	!
(<8GG/L	2GG\	(<8c#X/L	.	4B-\	.	4B-/	4B-\	mi-	.	.	.	.	.	.	.	.	.	.	.	.	.
8BB-/	.	8enX/	.	.	.	.	.	.	.	.	.	.	.	.	.	.	.	.	.	.	.
8C#X/	.	8g/	.	4B-\	.	4B-/	4B-\	-se-	.	.	.	.	.	.	.	.	.	.	.	.	.
8EnX/J)	.	8b-/J)	.	.	.	.	.	.	.	.	.	.	.	.	.	.	.	.	.	.	.
*Xrep	*Xrep	*Xrep	*	*	*	*	*	*	*	*	*	*	*	*	*	*	*	*	*	*	*
=25	=25	=25	=25	=25	=25	=25	=25	=25	=25	=25	=25	=25	=25	=25	=25	=25	=25	=25	=25	=25	=25
!LO:N:vis=2	!	!	!	!	!	!	!	!	!	!	!	!	!	!	!	!	!	!	!	!	!
(<8GG/L	2GG\	(<8d/L	.	1Bn	.	(>1Bn	(<1B	-re-	.	1ryy	.	.	1ryy	.	.	1r	.	.	1r	.	.
8BBn/	.	8f/	.	.	.	.	.	.	.	.	.	.	.	.	.	.	.	.	.	.	.
8D/	.	8a-X/	.	.	.	.	.	.	.	.	.	.	.	.	.	.	.	.	.	.	.
8F/J)	.	8bn/J)	.	.	.	.	.	.	.	.	.	.	.	.	.	.	.	.	.	.	.
*rep	*rep	*rep	*	*	*	*	*	*	*	*	*	*	*	*	*	*	*	*	*	*	*
!LO:N:vis=2	!	!	!	!	!	!	!	!	!	!	!	!	!	!	!	!	!	!	!	!	!
(<8GG/L	2GG\	(<8d/L	.	.	.	.	.	.	.	.	.	.	.	.	.	.	.	.	.	.	.
8BBnX/	.	8f/	.	.	.	.	.	.	.	.	.	.	.	.	.	.	.	.	.	.	.
8D/	.	8a-X/	.	.	.	.	.	.	.	.	.	.	.	.	.	.	.	.	.	.	.
8F/J)	.	8bn/J)	.	.	.	.	.	.	.	.	.	.	.	.	.	.	.	.	.	.	.
*Xrep	*Xrep	*Xrep	*	*	*	*	*	*	*	*	*	*	*	*	*	*	*	*	*	*	*
=26	=26	=26	=26	=26	=26	=26	=26	=26	=26	=26	=26	=26	=26	=26	=26	=26	=26	=26	=26	=26	=26
!LO:N:vis=2	!	!	!	!	!	!	!	!	!	!	!	!	!	!	!	!	!	!	!	!	!
(<8GG/L	2GG\	(<8c/L	.	2c\	.	2c/)	2c\)	.	.	1ryy	.	.	1ryy	.	.	1r	.	.	1r	.	.
8C/	.	8e-/	.	.	.	.	.	.	.	.	.	.	.	.	.	.	.	.	.	.	.
8E-/	.	8g/	.	.	.	.	.	.	.	.	.	.	.	.	.	.	.	.	.	.	.
8G/J)	.	8cc/J)	.	.	.	.	.	.	.	.	.	.	.	.	.	.	.	.	.	.	.
!LO:N:vis=2	!	!	!	!	!	!	!	!	!	!	!	!	!	!	!	!	!	!	!	!	!
(<8GG/L	2GG\	(<8d/L	.	2d\	.	2d/	2d\	-re	.	.	.	.	.	.	.	.	.	.	.	.	.
8BBn/	.	8g/	.	.	.	.	.	.	.	.	.	.	.	.	.	.	.	.	.	.	.
8D/	.	8bn/	.	.	.	.	.	.	.	.	.	.	.	.	.	.	.	.	.	.	.
8G/J)	.	8dd/J)	.	.	.	.	.	.	.	.	.	.	.	.	.	.	.	.	.	.	.
=27	=27	=27	=27	=27	=27	=27	=27	=27	=27	=27	=27	=27	=27	=27	=27	=27	=27	=27	=27	=27	=27
!LO:N:vis=2	!	!	!LO:DY:b:rj	!	!LO:DY:b:rj	!	!	!	!LO:DY:b:rj	!	!	!	!	!	!	!	!	!	!	!	!
(<8GG/L	2GG\	(>8f#X\L	ff	[>1e-	ff	[>1e-	[<1e-	no-	ff	1ryy	.	.	1ryy	.	.	1r	.	.	1r	.	.
8C/	.	8an\	.	.	.	.	.	.	.	.	.	.	.	.	.	.	.	.	.	.	.
8E-/	.	8cc\	.	.	.	.	.	.	.	.	.	.	.	.	.	.	.	.	.	.	.
8F#X/J)	.	8ee-\J	.	.	.	.	.	.	.	.	.	.	.	.	.	.	.	.	.	.	.
*rep	*rep	*	*	*	*	*	*	*	*	*	*	*	*	*	*	*	*	*	*	*	*
!LO:N:vis=2	!	!	!	!	!	!	!	!	!	!	!	!	!	!	!	!	!	!	!	!	!
(<8GG/L	2GG\	8ff#X\L	.	.	.	.	.	.	.	.	.	.	.	.	.	.	.	.	.	.	.
8C/	.	8ee-\	.	.	.	.	.	.	.	.	.	.	.	.	.	.	.	.	.	.	.
8E-/	.	8aan\	.	.	.	.	.	.	.	.	.	.	.	.	.	.	.	.	.	.	.
8F#X/J)	.	8ff#\J)	.	.	.	.	.	.	.	.	.	.	.	.	.	.	.	.	.	.	.
*Xrep	*Xrep	*	*	*	*	*	*	*	*	*	*	*	*	*	*	*	*	*	*	*	*
=28	=28	=28	=28	=28	=28	=28	=28	=28	=28	=28	=28	=28	=28	=28	=28	=28	=28	=28	=28	=28	=28
*rep	*rep	*	*	*	*	*	*	*	*	*	*	*	*	*	*	*	*	*	*	*	*
!LO:N:vis=2	!	!	!	!	!	!	!	!	!	!	!	!	!	!	!	!	!	!LO:DY:b:rj	!	!	!
(<8GG/L	2GG\	(>8ccc\L	.	2e-\]	.	2e-/]	2e-\]	.	.	1ryy	.	.	1ryy	.	.	2f#X\	A-	ff	1r	.	.
8C/	.	8aan\	.	.	.	.	.	.	.	.	.	.	.	.	.	.	.	.	.	.	.
8E-/	.	8ff#X\	.	.	.	.	.	.	.	.	.	.	.	.	.	.	.	.	.	.	.
8F#X/J)	.	8ee-\J)	.	.	.	.	.	.	.	.	.	.	.	.	.	.	.	.	.	.	.
!LO:N:vis=2	!	!	!	!	!	!	!	!	!	!	!	!	!	!	!	!	!	!	!	!	!
(<8GG/L	2GG\	(>8cc\L	.	2c\	.	2c/	2c\	.	.	.	.	.	.	.	.	2f#\	-gnus	.	.	.	.
8C/	.	8an\	.	.	.	.	.	.	.	.	.	.	.	.	.	.	.	.	.	.	.
8E-/	.	8f#X\	.	.	.	.	.	.	.	.	.	.	.	.	.	.	.	.	.	.	.
8F#X/J)	.	8e-\J)	.	.	.	.	.	.	.	.	.	.	.	.	.	.	.	.	.	.	.
*Xrep	*Xrep	*	*	*	*	*	*	*	*	*	*	*	*	*	*	*	*	*	*	*	*
*v	*v	*	*	*	*	*	*	*	*	*	*	*	*	*	*	*	*	*	*	*	*
=29	=29	=29	=29	=29	=29	=29	=29	=29	=29	=29	=29	=29	=29	=29	=29	=29	=29	=29	=29	=29
2G 2GG\	2g 2d 2Bn/	.	2G\	.	2d/	2Bn\	-bis	.	1ryy	.	.	1ryy	.	.	1g	De-	.	1r	.	.
2r	2r	.	2r	.	2rB	2ryy	.	.	.	.	.	.	.	.	.	.	.	.	.	.
*	*	*	*	*	*v	*v	*	*	*	*	*	*	*	*	*	*	*	*	*	*
=30	=30	=30	=30	=30	=30	=30	=30	=30	=30	=30	=30	=30	=30	=30	=30	=30	=30	=30	=30
1r	1r	.	1r	.	1r	.	.	1ryy	.	.	1ryy	.	.	2G/	-i	.	1r	.	.
.	.	.	.	.	.	.	.	.	.	.	.	.	.	2r	.	.	.	.	.
=31	=31	=31	=31	=31	=31	=31	=31	=31	=31	=31	=31	=31	=31	=31	=31	=31	=31	=31	=31
1r	1r	.	1r	.	1r	.	.	1ryy	.	.	1ryy	.	.	2r	.	.	1r	.	.
!	!	!	!	!	!	!	!	!	!	!	!	!	!	!	!	!LO:DY:b:rj	!	!	!
.	.	.	.	.	.	.	.	.	.	.	.	.	.	4Bn\	mi-	p	.	.	.
.	.	.	.	.	.	.	.	.	.	.	.	.	.	4c\	-se-	.	.	.	.
=32	=32	=32	=32	=32	=32	=32	=32	=32	=32	=32	=32	=32	=32	=32	=32	=32	=32	=32	=32
1r	1r	.	1r	.	1r	.	.	1ryy	.	.	1ryy	.	.	2d\	-re-	.	1r	.	.
.	.	.	.	.	.	.	.	.	.	.	.	.	.	2Bn\	-re	.	.	.	.
=33	=33	=33	=33	=33	=33	=33	=33	=33	=33	=33	=33	=33	=33	=33	=33	=33	=33	=33	=33
1r;>	1r;>	.	1r;>	.	1r;>	.	.	1ryy	.	.	1ryy	.	.	1G;>	no-	.	1r;>	.	.
!!LO:LB:g=original
=34	=34	=34	=34	=34	=34	=34	=34	=34	=34	=34	=34	=34	=34	=34	=34	=34	=34	=34	=34
!	!	!	!LO:TX:t=P:problem:w t. 34-66  głos niewidoczny w partyturze	!	!LO:TX:t=P:problem:w t. 34-66 głos niewidoczny w partyturze	!	!	!	!	!	!	!	!	!	!	!	!	!	!
!	!	!	!	!	!	!	!	!LO:TX:b:i:t=Soprano 2.	!	!	!LO:TX:b:i:t=Soprano 1\nCoro.	!	!	!	!	!	!	!	!
1r;>	1r;>	.	1ryy	.	1ryy	.	.	1r;>	.	.	1r;>	.	.	4G/	-bis	.	1r;>	.	.
.	.	.	.	.	.	.	.	.	.	.	.	.	.	4r	.	.	.	.	.
.	.	.	.	.	.	.	.	.	.	.	.	.	.	2r;>	.	.	.	.	.
=35	=35	=35	=35	=35	=35	=35	=35	=35	=35	=35	=35	=35	=35	=35	=35	=35	=35	=35	=35
!	!	!	!	!	!	!	!	!	!	!LO:DY:b:rj	!	!	!LO:DY:b:rj	!	!	!	!	!	!
1r	1r	.	1ryy	.	1ryy	.	.	1b- 1e-	.	f	(1gg	A-	f	1r	.	.	1r	.	.
=36	=36	=36	=36	=36	=36	=36	=36	=36	=36	=36	=36	=36	=36	=36	=36	=36	=36	=36	=36
*	*	*	*	*	*	*	*	*2\right	*	*	*2\right	*	*	*	*	*	*	*	*
1r	1r	.	1ryy	.	1ryy	.	.	1g 1e-	.	.	2ee-\)	.	.	1r	.	.	1r	.	.
.	.	.	.	.	.	.	.	.	.	.	2cc\	-gnus	.	.	.	.	.	.	.
=37	=37	=37	=37	=37	=37	=37	=37	=37	=37	=37	=37	=37	=37	=37	=37	=37	=37	=37	=37
1r	1r	.	1ryy	.	1ryy	.	.	1f 1d	.	.	1b-	De-	.	1r	.	.	1r	.	.
=38	=38	=38	=38	=38	=38	=38	=38	=38	=38	=38	=38	=38	=38	=38	=38	=38	=38	=38	=38
1r	1r	.	1ryy	.	1ryy	.	.	2g 2e-/	.	.	2g/	-i	.	1r	.	.	1r	.	.
.	.	.	.	.	.	.	.	2b- 2g/	.	.	2ee-\	qui	.	.	.	.	.	.	.
=39	=39	=39	=39	=39	=39	=39	=39	=39	=39	=39	=39	=39	=39	=39	=39	=39	=39	=39	=39
1r	1r	.	1ryy	.	1ryy	.	.	2a- 2f/	.	.	2dd\	tol-	.	1r	.	.	1r	.	.
.	.	.	.	.	.	.	.	4a- 4e-/	.	.	4cc\	-lis	.	.	.	.	.	.	.
.	.	.	.	.	.	.	.	4a- 4e-/	.	.	4cc\	pec-	.	.	.	.	.	.	.
=40	=40	=40	=40	=40	=40	=40	=40	=40	=40	=40	=40	=40	=40	=40	=40	=40	=40	=40	=40
1r	1r	.	1ryy	.	1ryy	.	.	2a- 2d/	.	.	2b-\	-ca-	.	1r	.	.	1r	.	.
.	.	.	.	.	.	.	.	2a- 2e-/	.	.	2cc\	-ta	.	.	.	.	.	.	.
=41	=41	=41	=41	=41	=41	=41	=41	=41	=41	=41	=41	=41	=41	=41	=41	=41	=41	=41	=41
1r	1r	.	1ryy	.	1ryy	.	.	1a- 1d	.	.	1b-	mun-	.	1r	.	.	1r	.	.
=42	=42	=42	=42	=42	=42	=42	=42	=42	=42	=42	=42	=42	=42	=42	=42	=42	=42	=42	=42
1r	1r	.	1ryy	.	1ryy	.	.	2g 2e-/	.	.	2ee-\	-di	.	1r	.	.	1r	.	.
.	.	.	.	.	.	.	.	4cc 4a-\	.	.	4ee-\	mi-	.	.	.	.	.	.	.
.	.	.	.	.	.	.	.	4cc 4a-\	.	.	4ff\	-se-	.	.	.	.	.	.	.
=43	=43	=43	=43	=43	=43	=43	=43	=43	=43	=43	=43	=43	=43	=43	=43	=43	=43	=43	=43
1r	1r	.	1ryy	.	1ryy	.	.	1bn 1g	.	.	1gg	-re-	.	1r	.	.	1r	.	.
=44	=44	=44	=44	=44	=44	=44	=44	=44	=44	=44	=44	=44	=44	=44	=44	=44	=44	=44	=44
1r	1r	.	1ryy	.	1ryy	.	.	2cc\ 2g\	.	.	2ee-\	-re	.	1r	.	.	1r	.	.
.	.	.	.	.	.	.	.	4cc 4a-\	.	.	4dd\	mi-	.	.	.	.	.	.	.
.	.	.	.	.	.	.	.	4cc 4a-\	.	.	4ff\	-se-	.	.	.	.	.	.	.
=45	=45	=45	=45	=45	=45	=45	=45	=45	=45	=45	=45	=45	=45	=45	=45	=45	=45	=45	=45
*	*	*	*	*	*	*	*	*^	*	*	*	*	*	*	*	*	*	*	*
1r	1r	.	1ryy	.	1ryy	.	.	1bn	[<1g	.	.	(>1gg	-re-	.	1r	.	.	1r	.	.
=46	=46	=46	=46	=46	=46	=46	=46	=46	=46	=46	=46	=46	=46	=46	=46	=46	=46	=46	=46	=46
1r	1r	.	1ryy	.	1ryy	.	.	1cc	2g\]	.	.	2ee-\)	.	.	1r	.	.	1r	.	.
.	.	.	.	.	.	.	.	.	2a-\	.	.	2ff\	-re	.	.	.	.	.	.	.
=47	=47	=47	=47	=47	=47	=47	=47	=47	=47	=47	=47	=47	=47	=47	=47	=47	=47	=47	=47	=47
1r	1r	.	1ryy	.	1ryy	.	.	1b-	1b-	.	.	1b-	no-	.	1r	.	.	1r	.	.
*	*	*	*	*	*	*	*	*v	*v	*	*	*	*	*	*	*	*	*	*	*
!!LO:PB:g=original
=48	=48	=48	=48	=48	=48	=48	=48	=48	=48	=48	=48	=48	=48	=48	=48	=48	=48	=48	=48
!	!	!	!	!	!	!	!	!	!	!	!	!	!	!	!	!	!LO:TX:i:a:t=Soprano Solo	!	!
1r	1r	.	1ryy	.	1ryy	.	.	1a- 1f	.	.	1dd	.	.	1r	.	.	1r	.	.
=49	=49	=49	=49	=49	=49	=49	=49	=49	=49	=49	=49	=49	=49	=49	=49	=49	=49	=49	=49
*^	*	*	*	*	*	*	*	*	*	*	*	*	*	*	*	*	*	*	*
!LO:N:vis=2	!	!	!LO:DY:b:rj	!	!	!	!	!	!	!	!	!	!	!	!	!	!	!	!	!
(<8E-/L	2E-\	(>8gg\L	f	1ryy	.	1ryy	.	.	4g 4e-/	bis	.	4dd\	-bis	.	1r	.	.	(>4.gg\	A-	.
8G/	.	8g\	.	.	.	.	.	.	.	.	.	.	.	.	.	.	.	.	.	.
8B-/	.	8b-\	.	.	.	.	.	.	4r	.	.	4r	.	.	.	.	.	.	.	.
8e-/J)	.	8ff\J)	.	.	.	.	.	.	.	.	.	.	.	.	.	.	.	8ff\)	.	.
*rep	*rep	*	*	*	*	*	*	*	*	*	*	*	*	*	*	*	*	*	*	*
!LO:N:vis=2	!	!	!	!	!	!	!	!	!	!	!	!	!	!	!	!	!	!	!	!
(<8E-/L	2E-\	(>8ee-\L	.	.	.	.	.	.	2r	.	.	2r	.	.	.	.	.	4ee-\	-gnus	.
8G/	.	8g\	.	.	.	.	.	.	.	.	.	.	.	.	.	.	.	.	.	.
8B-/	.	8b-\	.	.	.	.	.	.	.	.	.	.	.	.	.	.	.	4r	.	.
8e-/J)	.	8dd\J)	.	.	.	.	.	.	.	.	.	.	.	.	.	.	.	.	.	.
*Xrep	*Xrep	*	*	*	*	*	*	*	*	*	*	*	*	*	*	*	*	*	*	*
=50	=50	=50	=50	=50	=50	=50	=50	=50	=50	=50	=50	=50	=50	=50	=50	=50	=50	=50	=50	=50
*rep	*rep	*	*	*	*	*	*	*	*	*	*	*	*	*	*	*	*	*	*	*
!LO:N:vis=2	!	!	!	!	!	!	!	!	!	!	!	!	!	!	!	!	!	!	!	!
(<8E-/L	2E-\	(>8ee-\L	.	1ryy	.	1ryy	.	.	1r	.	.	1r	.	.	1r	.	.	1r	.	.
8G/	.	8g\	.	.	.	.	.	.	.	.	.	.	.	.	.	.	.	.	.	.
8B-/	.	8an\	.	.	.	.	.	.	.	.	.	.	.	.	.	.	.	.	.	.
8e-/J)	.	8b-\J)	.	.	.	.	.	.	.	.	.	.	.	.	.	.	.	.	.	.
!LO:N:vis=2	!	!	!	!	!	!	!	!	!	!	!	!	!	!	!	!	!	!	!	!
(<8E-/L	2E-\	(>8cc\L	.	.	.	.	.	.	.	.	.	.	.	.	.	.	.	.	.	.
8G/	.	8g\	.	.	.	.	.	.	.	.	.	.	.	.	.	.	.	.	.	.
8B-/	.	8a\	.	.	.	.	.	.	.	.	.	.	.	.	.	.	.	.	.	.
8e-/J)	.	8b-\J)	.	.	.	.	.	.	.	.	.	.	.	.	.	.	.	.	.	.
*Xrep	*Xrep	*	*	*	*	*	*	*	*	*	*	*	*	*	*	*	*	*	*	*
=51	=51	=51	=51	=51	=51	=51	=51	=51	=51	=51	=51	=51	=51	=51	=51	=51	=51	=51	=51	=51
*rep	*rep	*	*	*	*	*	*	*	*	*	*	*	*	*	*	*	*	*	*	*
!LO:N:vis=2	!	!	!	!	!	!	!	!	!	!	!	!	!	!	!	!	!	!	!	!
(<8E-/L	2E-\	(>8gg\L	.	1ryy	.	1ryy	.	.	1r	.	.	1r	.	.	1r	.	.	(>4.gg\	A-	.
8G/	.	8g\	.	.	.	.	.	.	.	.	.	.	.	.	.	.	.	.	.	.
8B-/	.	8b-\	.	.	.	.	.	.	.	.	.	.	.	.	.	.	.	.	.	.
8e-/J)	.	8ff\J)	.	.	.	.	.	.	.	.	.	.	.	.	.	.	.	8ff\)	.	.
!LO:N:vis=2	!	!	!	!	!	!	!	!	!	!	!	!	!	!	!	!	!	!	!	!
(<8E-/L	2E-\	(>8ee-\L	.	.	.	.	.	.	.	.	.	.	.	.	.	.	.	4ee-\	-gnus	.
8G/	.	8g\	.	.	.	.	.	.	.	.	.	.	.	.	.	.	.	.	.	.
8B-/	.	8b-\	.	.	.	.	.	.	.	.	.	.	.	.	.	.	.	4r	.	.
8e-/J)	.	8dd\J)	.	.	.	.	.	.	.	.	.	.	.	.	.	.	.	.	.	.
*Xrep	*Xrep	*	*	*	*	*	*	*	*	*	*	*	*	*	*	*	*	*	*	*
=52	=52	=52	=52	=52	=52	=52	=52	=52	=52	=52	=52	=52	=52	=52	=52	=52	=52	=52	=52	=52
*rep	*rep	*	*	*	*	*	*	*	*	*	*	*	*	*	*	*	*	*	*	*
!LO:N:vis=2	!	!	!	!	!	!	!	!	!	!	!	!	!	!	!	!	!	!	!	!
(<8E-/L	2E-\	(>8ee-\L	.	1ryy	.	1ryy	.	.	1r	.	.	1r	.	.	1r	.	.	1r	.	.
8G/	.	8g\	.	.	.	.	.	.	.	.	.	.	.	.	.	.	.	.	.	.
8B-/	.	8an\	.	.	.	.	.	.	.	.	.	.	.	.	.	.	.	.	.	.
8e-/J)	.	8b-\J)	.	.	.	.	.	.	.	.	.	.	.	.	.	.	.	.	.	.
!LO:N:vis=2	!	!	!	!	!	!	!	!	!	!	!	!	!	!	!	!	!	!	!	!
(<8E-/L	2E-\	(>8cc\L	.	.	.	.	.	.	.	.	.	.	.	.	.	.	.	.	.	.
8G/	.	8g\	.	.	.	.	.	.	.	.	.	.	.	.	.	.	.	.	.	.
8B-/	.	8a\	.	.	.	.	.	.	.	.	.	.	.	.	.	.	.	.	.	.
8e-/J)	.	8b-\J)	.	.	.	.	.	.	.	.	.	.	.	.	.	.	.	.	.	.
*Xrep	*Xrep	*	*	*	*	*	*	*	*	*	*	*	*	*	*	*	*	*	*	*
=53	=53	=53	=53	=53	=53	=53	=53	=53	=53	=53	=53	=53	=53	=53	=53	=53	=53	=53	=53	=53
!LO:N:vis=2	!	!	!	!	!	!	!	!	!	!	!	!	!	!	!	!	!	!	!	!
*	*	*	*	*	*	*	*	*	*	*	*	*	*	*	*	*	*	*2\right	*	*
(<8D/L	2D\	(>8ff\L	.	1ryy	.	1ryy	.	.	1r	.	.	1r	.	.	1r	.	.	(>2ff\	A-	.
8F/	.	8a-\	.	.	.	.	.	.	.	.	.	.	.	.	.	.	.	.	.	.
8B-/	.	8b-\	.	.	.	.	.	.	.	.	.	.	.	.	.	.	.	.	.	.
8d/J)	.	8ff\J)	.	.	.	.	.	.	.	.	.	.	.	.	.	.	.	.	.	.
*rep	*rep	*	*	*	*	*	*	*	*	*	*	*	*	*	*	*	*	*	*	*
!LO:N:vis=2	!	!	!	!	!	!	!	!	!	!	!	!	!	!	!	!	!	!	!	!
(<8D/L	2D\	(>8gg\L	.	.	.	.	.	.	.	.	.	.	.	.	.	.	.	4gg\	.	.
8F/	.	8a-\	.	.	.	.	.	.	.	.	.	.	.	.	.	.	.	.	.	.
8B-/	.	8b-\	.	.	.	.	.	.	.	.	.	.	.	.	.	.	.	4ff\	.	.
8d/J)	.	8ff\J)	.	.	.	.	.	.	.	.	.	.	.	.	.	.	.	.	.	.
*Xrep	*Xrep	*	*	*	*	*	*	*	*	*	*	*	*	*	*	*	*	*	*	*
=54	=54	=54	=54	=54	=54	=54	=54	=54	=54	=54	=54	=54	=54	=54	=54	=54	=54	=54	=54	=54
!LO:N:vis=2	!	!	!	!	!	!	!	!	!	!	!	!	!	!	!	!	!	!	!	!
(<8E-/L	2E-\	(>8ee-\L	.	1ryy	.	1ryy	.	.	1r	.	.	1r	.	.	1r	.	.	2ee-\)	.	.
8G/	.	8g\	.	.	.	.	.	.	.	.	.	.	.	.	.	.	.	.	.	.
8B-/	.	8b-\	.	.	.	.	.	.	.	.	.	.	.	.	.	.	.	.	.	.
8e-/J)	.	8ee-\J)	.	.	.	.	.	.	.	.	.	.	.	.	.	.	.	.	.	.
!LO:N:vis=2	!	!	!	!	!	!	!	!	!	!	!	!	!	!	!	!	!	!	!	!
(<8AA-/L	2AA-\	(>8ff\L	.	.	.	.	.	.	.	.	.	.	.	.	.	.	.	2ff\	-gnus	.
8C/	.	8a-\	.	.	.	.	.	.	.	.	.	.	.	.	.	.	.	.	.	.
8F/	.	8cc\	.	.	.	.	.	.	.	.	.	.	.	.	.	.	.	.	.	.
8A-/J)	.	8ff\J)	.	.	.	.	.	.	.	.	.	.	.	.	.	.	.	.	.	.
=55	=55	=55	=55	=55	=55	=55	=55	=55	=55	=55	=55	=55	=55	=55	=55	=55	=55	=55	=55	=55
!LO:N:vis=2	!	!	!	!	!	!	!	!	!	!	!	!	!	!	!	!	!	!	!	!
(<8BB-/L	2BB-\	(>8b-\L	.	1ryy	.	1ryy	.	.	1r	.	.	1r	.	.	1r	.	.	(>2b-\	De-	.
8E-/	.	8e-\	.	.	.	.	.	.	.	.	.	.	.	.	.	.	.	.	.	.
8G/	.	8g\	.	.	.	.	.	.	.	.	.	.	.	.	.	.	.	.	.	.
8B-/J)	.	8b-\J)	.	.	.	.	.	.	.	.	.	.	.	.	.	.	.	.	.	.
.	.	.	.	.	.	.	.	.	.	.	.	.	.	.	.	.	.	(<16qqcc/LL	.	.
.	.	.	.	.	.	.	.	.	.	.	.	.	.	.	.	.	.	16qqb-/	.	.
.	.	.	.	.	.	.	.	.	.	.	.	.	.	.	.	.	.	16qqan/	.	.
.	.	.	.	.	.	.	.	.	.	.	.	.	.	.	.	.	.	16qqb-/JJ)	.	.
!LO:N:vis=2	!	!	!	!	!	!	!	!	!	!	!	!	!	!	!	!	!	!	!	!
(<8BB-/L	2BB-\	(>8dd\L	.	.	.	.	.	.	.	.	.	.	.	.	.	.	.	4gg\	.	.
8D/	.	8f\	.	.	.	.	.	.	.	.	.	.	.	.	.	.	.	.	.	.
8F/	.	8a-\	.	.	.	.	.	.	.	.	.	.	.	.	.	.	.	4ff\)	.	.
8B-/J)	.	8dd\J)	.	.	.	.	.	.	.	.	.	.	.	.	.	.	.	.	.	.
=56	=56	=56	=56	=56	=56	=56	=56	=56	=56	=56	=56	=56	=56	=56	=56	=56	=56	=56	=56	=56
!LO:N:vis=2	!	!	!	!	!	!	!	!	!	!	!	!	!	!	!	!	!	!	!	!
(<8E-/L	2E-\	(>8ee-\L	.	1ryy	.	1ryy	.	.	2r	.	.	2r	.	.	1r	.	.	4ee-\	-i	.
8G/	.	8g\	.	.	.	.	.	.	.	.	.	.	.	.	.	.	.	.	.	.
8B-/	.	8b-\	.	.	.	.	.	.	.	.	.	.	.	.	.	.	.	4r	.	.
8e-/J)	.	8ee-\J)	.	.	.	.	.	.	.	.	.	.	.	.	.	.	.	.	.	.
*rep	*rep	*	*	*	*	*	*	*	*	*	*	*	*	*	*	*	*	*	*	*
!LO:N:vis=2	!	!	!	!	!	!	!	!	!	!	!LO:DY:b:rj	!	!	!LO:DY:b:rj	!	!	!	!	!	!
(<8E-/L	2E-\	(>8b-\L	.	.	.	.	.	.	4g 4e-/	.	p	4b-\	mi-	p	.	.	.	4r	.	.
8G/	.	8g\	.	.	.	.	.	.	.	.	.	.	.	.	.	.	.	.	.	.
8B-/	.	8b-\	.	.	.	.	.	.	4g 4e-/	.	.	4b-\	-se-	.	.	.	.	4b-\	qui	.
8e-/J)	.	8ee-\J)	.	.	.	.	.	.	.	.	.	.	.	.	.	.	.	.	.	.
*Xrep	*Xrep	*	*	*	*	*	*	*	*	*	*	*	*	*	*	*	*	*	*	*
!!LO:LB:g=original
=57	=57	=57	=57	=57	=57	=57	=57	=57	=57	=57	=57	=57	=57	=57	=57	=57	=57	=57	=57	=57
!LO:N:vis=2	!	!	!	!	!	!	!	!	!	!	!	!	!	!	!	!	!	!	!	!
(<8E-/L	2E-\	(>8b-\L	.	1ryy	.	1ryy	.	.	1a- 1d	.	.	1b-	-re-	.	1r	.	.	(>4.b-\	tol-	.
8A-/	.	8f\	.	.	.	.	.	.	.	.	.	.	.	.	.	.	.	.	.	.
8B-/	.	8a-\	.	.	.	.	.	.	.	.	.	.	.	.	.	.	.	.	.	.
8d/J)	.	8cc\J)	.	.	.	.	.	.	.	.	.	.	.	.	.	.	.	8cc\)	.	.
*rep	*rep	*	*	*	*	*	*	*	*	*	*	*	*	*	*	*	*	*	*	*
!LO:N:vis=2	!	!	!	!	!	!	!	!	!	!	!	!	!	!	!	!	!	!	!	!
(<8E-/L	2E-\	(>8b-\L	.	.	.	.	.	.	.	.	.	.	.	.	.	.	.	4b-\	-lis	.
8A-/	.	8a-\	.	.	.	.	.	.	.	.	.	.	.	.	.	.	.	.	.	.
8B-/	.	8b-\	.	.	.	.	.	.	.	.	.	.	.	.	.	.	.	4ff\	pec-	.
8d/J)	.	8ff\J)	.	.	.	.	.	.	.	.	.	.	.	.	.	.	.	.	.	.
*Xrep	*Xrep	*	*	*	*	*	*	*	*	*	*	*	*	*	*	*	*	*	*	*
=58	=58	=58	=58	=58	=58	=58	=58	=58	=58	=58	=58	=58	=58	=58	=58	=58	=58	=58	=58	=58
!LO:N:vis=2	!	!	!	!	!	!	!	!	!	!	!	!	!	!	!	!	!	!	!	!
(<8E-/L	2E-\	(>8ee-\L	.	1ryy	.	1ryy	.	.	2g 2e-/	.	.	2b-\	-re	.	1r	.	.	2ee-\	-ca-	.
8G/	.	8g\	.	.	.	.	.	.	.	.	.	.	.	.	.	.	.	.	.	.
8B-/	.	8b-\	.	.	.	.	.	.	.	.	.	.	.	.	.	.	.	.	.	.
8e-/J)	.	8ee-\J)	.	.	.	.	.	.	.	.	.	.	.	.	.	.	.	.	.	.
*rep	*rep	*	*	*	*	*	*	*	*	*	*	*	*	*	*	*	*	*	*	*
!LO:N:vis=2	!	!	!	!	!	!	!	!	!	!	!	!	!	!	!	!	!	!	!	!
(<8E-/L	2E-\	(>8gg\L	.	.	.	.	.	.	4g 4e-/	.	.	4b-\	mi-	.	.	.	.	2b-\	-ta	.
8G/	.	8ee-\	.	.	.	.	.	.	.	.	.	.	.	.	.	.	.	.	.	.
8B-/	.	8b-\	.	.	.	.	.	.	4g 4e-/	.	.	4b-\	-se-	.	.	.	.	.	.	.
8e-/J)	.	8g\J)	.	.	.	.	.	.	.	.	.	.	.	.	.	.	.	.	.	.
*Xrep	*Xrep	*	*	*	*	*	*	*	*	*	*	*	*	*	*	*	*	*	*	*
=59	=59	=59	=59	=59	=59	=59	=59	=59	=59	=59	=59	=59	=59	=59	=59	=59	=59	=59	=59	=59
!LO:N:vis=2	!	!	!	!	!	!	!	!	!	!	!	!	!	!	!	!	!	!	!	!
(<8E-/L	2E-\	(>8b-\L	.	1ryy	.	1ryy	.	.	1a- 1d	.	.	1b-	-re-	.	1r	.	.	(>4.b-\	mun-	.
8A-/	.	8f\	.	.	.	.	.	.	.	.	.	.	.	.	.	.	.	.	.	.
8B-/	.	8a-\	.	.	.	.	.	.	.	.	.	.	.	.	.	.	.	.	.	.
8d/J)	.	8cc\J)	.	.	.	.	.	.	.	.	.	.	.	.	.	.	.	8cc\	.	.
*rep	*rep	*	*	*	*	*	*	*	*	*	*	*	*	*	*	*	*	*	*	*
!LO:N:vis=2	!	!	!	!	!	!	!	!	!	!	!	!	!	!	!	!	!	!	!	!
(<8E-/L	2E-\	(>8b-\L	.	.	.	.	.	.	.	.	.	.	.	.	.	.	.	4b-\	.	.
8A-/	.	8f\	.	.	.	.	.	.	.	.	.	.	.	.	.	.	.	.	.	.
8B-/	.	8a-\	.	.	.	.	.	.	.	.	.	.	.	.	.	.	.	4ff\)	.	.
8d/J)	.	8b-\J)	.	.	.	.	.	.	.	.	.	.	.	.	.	.	.	.	.	.
*Xrep	*Xrep	*	*	*	*	*	*	*	*	*	*	*	*	*	*	*	*	*	*	*
*v	*v	*	*	*	*	*	*	*	*	*	*	*	*	*	*	*	*	*	*	*
=60	=60	=60	=60	=60	=60	=60	=60	=60	=60	=60	=60	=60	=60	=60	=60	=60	=60	=60	=60
*	*	*	*	*	*	*	*	*^	*	*	*	*	*	*	*	*	*	*	*
4E-\	(>8g\L	.	1ryy	.	1ryy	.	.	2g 2e-/	2ryy	.	.	2b-\	-re	.	1r	.	.	4ee-\	-di	.
.	8e-\	.	.	.	.	.	.	.	.	.	.	.	.	.	.	.	.	.	.	.
4r	8g\	.	.	.	.	.	.	.	.	.	.	.	.	.	.	.	.	4r	.	.
.	8b-\J)	.	.	.	.	.	.	.	.	.	.	.	.	.	.	.	.	.	.	.
2E- 2EE-/	(>8ee-\L	.	.	.	.	.	.	4g/	4g\	.	.	4g/	mi-	.	.	.	.	4ee-\	mi-	.
.	8g\	.	.	.	.	.	.	.	.	.	.	.	.	.	.	.	.	.	.	.
.	8b-\	.	.	.	.	.	.	4g/	4g\	.	.	4g/	-se-	.	.	.	.	4dd\	-se-	.
.	8dd\J)	.	.	.	.	.	.	.	.	.	.	.	.	.	.	.	.	.	.	.
=61	=61	=61	=61	=61	=61	=61	=61	=61	=61	=61	=61	=61	=61	=61	=61	=61	=61	=61	=61	=61
2A- 2AA-/	(>8cc\L	.	1ryy	.	1ryy	.	.	2a-/	2a-\	.	.	2a-/	-re-	.	1r	.	.	2cc\	-re-	.
.	8a-\	.	.	.	.	.	.	.	.	.	.	.	.	.	.	.	.	.	.	.
.	8cc\	.	.	.	.	.	.	.	.	.	.	.	.	.	.	.	.	.	.	.
.	8ee-\J)	.	.	.	.	.	.	.	.	.	.	.	.	.	.	.	.	.	.	.
2F 2FF/	(>8ff\L	.	.	.	.	.	.	2an/	2an\	.	.	2an/	.	.	.	.	.	4ff\	.	.
.	8an\	.	.	.	.	.	.	.	.	.	.	.	.	.	.	.	.	.	.	.
.	8cc\	.	.	.	.	.	.	.	.	.	.	.	.	.	.	.	.	4ee-\	.	.
.	8ee-\J)	.	.	.	.	.	.	.	.	.	.	.	.	.	.	.	.	.	.	.
=62	=62	=62	=62	=62	=62	=62	=62	=62	=62	=62	=62	=62	=62	=62	=62	=62	=62	=62	=62	=62
2B- 2BB-\	(>8dd\L	.	1ryy	.	1ryy	.	.	2b-/	2b-\	.	.	2b-\	.	.	1r	.	.	2dd\	.	.
.	8b-\	.	.	.	.	.	.	.	.	.	.	.	.	.	.	.	.	.	.	.
.	8dd\	.	.	.	.	.	.	.	.	.	.	.	.	.	.	.	.	.	.	.
.	8ff\J)	.	.	.	.	.	.	.	.	.	.	.	.	.	.	.	.	.	.	.
2G\ 2GG\	(>8gg\L	.	.	.	.	.	.	2bn/	2bn\	.	.	2bn\	.	.	.	.	.	4gg\	.	.
.	8bn\	.	.	.	.	.	.	.	.	.	.	.	.	.	.	.	.	.	.	.
.	8dd\	.	.	.	.	.	.	.	.	.	.	.	.	.	.	.	.	4ff\	.	.
.	8ff\J)	.	.	.	.	.	.	.	.	.	.	.	.	.	.	.	.	.	.	.
=63	=63	=63	=63	=63	=63	=63	=63	=63	=63	=63	=63	=63	=63	=63	=63	=63	=63	=63	=63	=63
1c 1C	(>8ee-\L	.	1ryy	.	1ryy	.	.	1cc	1cc	.	.	1cc	.	.	1r	.	.	1ee-	.	.
.	8cc\	.	.	.	.	.	.	.	.	.	.	.	.	.	.	.	.	.	.	.
.	8g\	.	.	.	.	.	.	.	.	.	.	.	.	.	.	.	.	.	.	.
.	8e-\J)	.	.	.	.	.	.	.	.	.	.	.	.	.	.	.	.	.	.	.
.	(>8g\L	.	.	.	.	.	.	.	.	.	.	.	.	.	.	.	.	.	.	.
.	8cc\	.	.	.	.	.	.	.	.	.	.	.	.	.	.	.	.	.	.	.
.	8ee-\	.	.	.	.	.	.	.	.	.	.	.	.	.	.	.	.	.	.	.
.	8cc\J)	.	.	.	.	.	.	.	.	.	.	.	.	.	.	.	.	.	.	.
=64	=64	=64	=64	=64	=64	=64	=64	=64	=64	=64	=64	=64	=64	=64	=64	=64	=64	=64	=64	=64
1F 1FF	(>8gg\L	.	1ryy	.	1ryy	.	.	1a-	1f	.	.	1dd	-re	.	1r	.	.	2gg\	.	.
.	8dd\	.	.	.	.	.	.	.	.	.	.	.	.	.	.	.	.	.	.	.
.	8a-\	.	.	.	.	.	.	.	.	.	.	.	.	.	.	.	.	.	.	.
.	8dd\J)	.	.	.	.	.	.	.	.	.	.	.	.	.	.	.	.	.	.	.
.	(>8ff\L	.	.	.	.	.	.	.	.	.	.	.	.	.	.	.	.	2ff\	-re	.
.	8dd\	.	.	.	.	.	.	.	.	.	.	.	.	.	.	.	.	.	.	.
.	8a-\	.	.	.	.	.	.	.	.	.	.	.	.	.	.	.	.	.	.	.
.	8dd\J)	.	.	.	.	.	.	.	.	.	.	.	.	.	.	.	.	.	.	.
=65	=65	=65	=65	=65	=65	=65	=65	=65	=65	=65	=65	=65	=65	=65	=65	=65	=65	=65	=65	=65
1G 1GG	(>8ee-\L	.	1ryy	.	1ryy	.	.	1g	1g	.	.	1cc	no-	.	1r	.	.	1ee-	no-	.
.	8cc\	.	.	.	.	.	.	.	.	.	.	.	.	.	.	.	.	.	.	.
.	8g\	.	.	.	.	.	.	.	.	.	.	.	.	.	.	.	.	.	.	.
.	8cc\J)	.	.	.	.	.	.	.	.	.	.	.	.	.	.	.	.	.	.	.
.	(<8e-/L	.	.	.	.	.	.	.	.	.	.	.	.	.	.	.	.	.	.	.
.	8g/	.	.	.	.	.	.	.	.	.	.	.	.	.	.	.	.	.	.	.
.	8c/	.	.	.	.	.	.	.	.	.	.	.	.	.	.	.	.	.	.	.
.	8e-/J)	.	.	.	.	.	.	.	.	.	.	.	.	.	.	.	.	.	.	.
!!LO:PB:g=original
=66	=66	=66	=66	=66	=66	=66	=66	=66	=66	=66	=66	=66	=66	=66	=66	=66	=66	=66	=66	=66
*^	*	*	*	*	*	*	*	*	*	*	*	*	*	*	*	*	*	*	*	*
!LO:N:vis=2	!	!	!	!	!	!	!	!	!	!	!	!	!	!	!	!	!	!	!	!	!
(<8GG/L	2GG\	(<8g/L	.	1ryy	.	1ryy	.	.	4g/	4g\	.	.	4bn\	-bis	.	1r	.	.	4dd\	-bis	.
8D/	.	8Bn/	.	.	.	.	.	.	.	.	.	.	.	.	.	.	.	.	.	.	.
8F/	.	8d/	.	.	.	.	.	.	4r	4ryy	.	.	4r	.	.	.	.	.	4r	.	.
8G/J)	.	8g/J)	.	.	.	.	.	.	.	.	.	.	.	.	.	.	.	.	.	.	.
*rep	*rep	*	*	*	*	*	*	*	*	*	*	*	*	*	*	*	*	*	*	*	*
!LO:N:vis=2	!	!	!	!	!	!	!	!	!	!	!	!	!	!	!	!	!	!	!	!	!
(<8GG/L	2GG\	(<8a-/L	.	.	.	.	.	.	2r	2ryy	.	.	2r	.	.	.	.	.	2r	.	.
8D/	.	8B/	.	.	.	.	.	.	.	.	.	.	.	.	.	.	.	.	.	.	.
8F/	.	8d/	.	.	.	.	.	.	.	.	.	.	.	.	.	.	.	.	.	.	.
8G/J)	.	8an/J)	.	.	.	.	.	.	.	.	.	.	.	.	.	.	.	.	.	.	.
*Xrep	*Xrep	*	*	*	*	*	*	*	*	*	*	*	*	*	*	*	*	*	*	*	*
*	*	*	*	*	*	*	*	*	*v	*v	*	*	*	*	*	*	*	*	*	*	*
=67	=67	=67	=67	=67	=67	=67	=67	=67	=67	=67	=67	=67	=67	=67	=67	=67	=67	=67	=67	=67
*rep	*rep	*	*	*	*	*	*	*	*	*	*	*	*	*	*	*	*	*	*	*
!LO:N:vis=2	!	!	!	!LO:TX:i:a:t=Baſsi	!	!LO:TX:b:i:t=Tenori\ncoro.	!	!	!LO:TX:t=P:problem:t. 67-82 niewidoczne w partyturze	!	!	!LO:TX:t=P:problem:t. 67-82 niewidoczne w partyturze	!	!	!LO:TX:i:a:t=Tenor Solo	!	!	!LO:TX:i:a:t=Sopra Solo	!	!
(<8GG/L	2GG\	8b-X/L	.	1r	.	1r	.	.	1ryy	.	.	1ryy	.	.	1r	.	.	1r	.	.
8D/	.	8d/	.	.	.	.	.	.	.	.	.	.	.	.	.	.	.	.	.	.
8F/	.	8f/	.	.	.	.	.	.	.	.	.	.	.	.	.	.	.	.	.	.
8G/J)	.	8bn/J	.	.	.	.	.	.	.	.	.	.	.	.	.	.	.	.	.	.
!LO:N:vis=2	!	!	!	!	!	!	!	!	!	!	!	!	!	!	!	!	!	!	!	!
(<8GG/L	2GG\	(>8cc\L	.	.	.	.	.	.	.	.	.	.	.	.	.	.	.	.	.	.
8D/	.	8f\	.	.	.	.	.	.	.	.	.	.	.	.	.	.	.	.	.	.
8F/	.	8b\	.	.	.	.	.	.	.	.	.	.	.	.	.	.	.	.	.	.
8G/J)	.	8dd\J)	.	.	.	.	.	.	.	.	.	.	.	.	.	.	.	.	.	.
*Xrep	*Xrep	*	*	*	*	*	*	*	*	*	*	*	*	*	*	*	*	*	*	*
=68	=68	=68	=68	=68	=68	=68	=68	=68	=68	=68	=68	=68	=68	=68	=68	=68	=68	=68	=68	=68
!LO:N:vis=2	!	!	!	!	!	!	!	!	!	!	!	!	!	!	!	!	!LO:DY:b:rj	!	!	!LO:DY:b:rj
(<8C/L	2C\	(>8ee-\L	.	2r	.	2r	.	.	1ryy	.	.	1ryy	.	.	(>4.e-\	.	f	(>4.gg\	A-	f
8E-/	.	8e-\	.	.	.	.	.	.	.	.	.	.	.	.	.	.	.	.	.	.
8G/	.	8g\	.	.	.	.	.	.	.	.	.	.	.	.	.	.	.	.	.	.
8c/J)	.	8dd\J)	.	.	.	.	.	.	.	.	.	.	.	.	8d\)	.	.	8ff\)	.	.
*rep	*rep	*	*	*	*	*	*	*	*	*	*	*	*	*	*	*	*	*	*	*
!LO:N:vis=2	!	!	!	!	!LO:DY:b:rj	!	!	!LO:DY:b:rj	!	!	!	!	!	!	!	!	!	!	!	!
(<8C/L	2C\	(>8cc\L	.	4C/	f	4G 4E-/	mi-	f	.	.	.	.	.	.	4c\	.	.	4ee-\	-gnus	.
8E-/	.	8e-\	.	.	.	.	.	.	.	.	.	.	.	.	.	.	.	.	.	.
8G/	.	8g\	.	4C/	.	4G 4E-/	-se-	.	.	.	.	.	.	.	4r	.	.	4r	.	.
8c/J)	.	8bn\J)	.	.	.	.	.	.	.	.	.	.	.	.	.	.	.	.	.	.
*Xrep	*Xrep	*	*	*	*	*	*	*	*	*	*	*	*	*	*	*	*	*	*	*
=69	=69	=69	=69	=69	=69	=69	=69	=69	=69	=69	=69	=69	=69	=69	=69	=69	=69	=69	=69	=69
*rep	*rep	*	*	*	*	*	*	*	*	*	*	*	*	*	*	*	*	*	*	*
!LO:N:vis=2	!	!	!	!	!	!	!	!	!	!	!	!	!	!	!	!	!	!	!	!
(<8C/L	2C\	(>8cc\L	.	2C/	.	2G 2E-/	-re-	.	1ryy	.	.	1ryy	.	.	1r	.	.	1r	.	.
8E-/	.	8e-\	.	.	.	.	.	.	.	.	.	.	.	.	.	.	.	.	.	.
8G/	.	8f#X\	.	.	.	.	.	.	.	.	.	.	.	.	.	.	.	.	.	.
8c/J)	.	8g\J)	.	.	.	.	.	.	.	.	.	.	.	.	.	.	.	.	.	.
!LO:N:vis=2	!	!	!	!	!	!	!	!	!	!	!	!	!	!	!	!	!	!	!	!
(<8C/L	2C\	(>8a-X\L	.	2C/	.	2G 2E-/	-re	.	.	.	.	.	.	.	.	.	.	.	.	.
8E-/	.	8e-\	.	.	.	.	.	.	.	.	.	.	.	.	.	.	.	.	.	.
8G/	.	8f#\	.	.	.	.	.	.	.	.	.	.	.	.	.	.	.	.	.	.
8c/J)	.	8g\J)	.	.	.	.	.	.	.	.	.	.	.	.	.	.	.	.	.	.
*Xrep	*Xrep	*	*	*	*	*	*	*	*	*	*	*	*	*	*	*	*	*	*	*
=70	=70	=70	=70	=70	=70	=70	=70	=70	=70	=70	=70	=70	=70	=70	=70	=70	=70	=70	=70	=70
*rep	*rep	*	*	*	*	*	*	*	*	*	*	*	*	*	*	*	*	*	*	*
!LO:N:vis=2	!	!	!	!	!	!	!	!	!	!	!	!	!	!	!	!	!	!	!	!
(<8C/L	2C\	(>8ee-\L	.	1C	.	1G 1E-	no-	.	1ryy	.	.	1ryy	.	.	(>4.g\	.	.	(>4.ee-\	A-	.
8E-/	.	8e-\	.	.	.	.	.	.	.	.	.	.	.	.	.	.	.	.	.	.
8G/	.	8g\	.	.	.	.	.	.	.	.	.	.	.	.	.	.	.	.	.	.
8c/J)	.	8dd\J)	.	.	.	.	.	.	.	.	.	.	.	.	8f\)	.	.	8dd\)	.	.
!LO:N:vis=2	!	!	!	!	!	!	!	!	!	!	!	!	!	!	!	!	!	!	!	!
(<8C/L	2C\	(>8cc\L	.	.	.	.	.	.	.	.	.	.	.	.	4e-\	.	.	4cc\	-gnus	.
8E-/	.	8e-\	.	.	.	.	.	.	.	.	.	.	.	.	.	.	.	.	.	.
8G/	.	8g\	.	.	.	.	.	.	.	.	.	.	.	.	4r	.	.	4r	.	.
8c/J)	.	8bn\J)	.	.	.	.	.	.	.	.	.	.	.	.	.	.	.	.	.	.
*Xrep	*Xrep	*	*	*	*	*	*	*	*	*	*	*	*	*	*	*	*	*	*	*
=71	=71	=71	=71	=71	=71	=71	=71	=71	=71	=71	=71	=71	=71	=71	=71	=71	=71	=71	=71	=71
*rep	*rep	*	*	*	*	*	*	*	*	*	*	*	*	*	*	*	*	*	*	*
!LO:N:vis=2	!	!	!	!	!	!	!	!	!	!	!	!	!	!	!	!	!	!	!	!
(<8C/L	2C\	(>8cc\L	.	2C/	.	2G 2E-/	-bis	.	1ryy	.	.	1ryy	.	.	1r	.	.	1r	.	.
8E-/	.	8e-\	.	.	.	.	.	.	.	.	.	.	.	.	.	.	.	.	.	.
8G/	.	8f#X\	.	.	.	.	.	.	.	.	.	.	.	.	.	.	.	.	.	.
8c/J)	.	8g\J)	.	.	.	.	.	.	.	.	.	.	.	.	.	.	.	.	.	.
!LO:N:vis=2	!	!	!	!	!	!	!	!	!	!	!	!	!	!	!	!	!	!	!	!
(<8C/L	2C\	(>8a-X\L	.	2r	.	2r	.	.	.	.	.	.	.	.	.	.	.	.	.	.
8E-/	.	8e-\	.	.	.	.	.	.	.	.	.	.	.	.	.	.	.	.	.	.
8G/	.	8f#\	.	.	.	.	.	.	.	.	.	.	.	.	.	.	.	.	.	.
8c/J)	.	8g\J)	.	.	.	.	.	.	.	.	.	.	.	.	.	.	.	.	.	.
*Xrep	*Xrep	*	*	*	*	*	*	*	*	*	*	*	*	*	*	*	*	*	*	*
=72	=72	=72	=72	=72	=72	=72	=72	=72	=72	=72	=72	=72	=72	=72	=72	=72	=72	=72	=72	=72
!LO:N:vis=2	!	!	!	!	!	!	!	!	!	!	!	!	!	!	!	!	!	!	!	!
(<8GG/L	2GG\	(>8dd\L	.	2r	.	2r	.	.	1ryy	.	.	1ryy	.	.	(>2f\	.	.	(>2dd\	A-	.
8BBn/	.	8fn\	.	.	.	.	.	.	.	.	.	.	.	.	.	.	.	.	.	.
8D/	.	8g\	.	.	.	.	.	.	.	.	.	.	.	.	.	.	.	.	.	.
8G/J)	.	8dd\J)	.	.	.	.	.	.	.	.	.	.	.	.	.	.	.	.	.	.
*rep	*rep	*	*	*	*	*	*	*	*	*	*	*	*	*	*	*	*	*	*	*
!LO:N:vis=2	!	!	!	!	!	!	!	!	!	!	!	!	!	!	!	!	!	!	!	!
(<8GG/L	2GG\	(>8ee-\L	.	4G\	.	4Bn 4G/	mi-	.	.	.	.	.	.	.	4g\	.	.	4ee-\	.	.
8BBnX/	.	8g\	.	.	.	.	.	.	.	.	.	.	.	.	.	.	.	.	.	.
8D/	.	8f\	.	4G\	.	4B 4G/	-se-	.	.	.	.	.	.	.	4f\	.	.	4dd\	.	.
8G/J)	.	8dd\J)	.	.	.	.	.	.	.	.	.	.	.	.	.	.	.	.	.	.
*Xrep	*Xrep	*	*	*	*	*	*	*	*	*	*	*	*	*	*	*	*	*	*	*
=73	=73	=73	=73	=73	=73	=73	=73	=73	=73	=73	=73	=73	=73	=73	=73	=73	=73	=73	=73	=73
!LO:N:vis=2	!	!	!	!	!	!	!	!	!	!	!	!	!	!	!	!	!	!	!	!
(<8GG/L	2GG\	(>8cc\L	.	2G\	.	2c 2G\	-re-	.	1ryy	.	.	1ryy	.	.	2e-\)	.	.	2cc\)	.	.
8C/	.	8e-\	.	.	.	.	.	.	.	.	.	.	.	.	.	.	.	.	.	.
8E-/	.	8g\	.	.	.	.	.	.	.	.	.	.	.	.	.	.	.	.	.	.
8G/J)	.	8cc\J)	.	.	.	.	.	.	.	.	.	.	.	.	.	.	.	.	.	.
!LO:N:vis=2	!	!	!	!	!	!	!	!	!	!	!	!	!	!	!	!	!	!	!	!
(<8FF/L	2FF\	(>8ee-\L	.	2F\	.	2d 2A-\	-re	.	.	.	.	.	.	.	2f\	.	.	2dd\	-gnus	.
8AA-/	.	8f\	.	.	.	.	.	.	.	.	.	.	.	.	.	.	.	.	.	.
8D/	.	8a-\	.	.	.	.	.	.	.	.	.	.	.	.	.	.	.	.	.	.
8F/J)	.	8dd\J)	.	.	.	.	.	.	.	.	.	.	.	.	.	.	.	.	.	.
=74	=74	=74	=74	=74	=74	=74	=74	=74	=74	=74	=74	=74	=74	=74	=74	=74	=74	=74	=74	=74
*	*	*	*	*	*	*^	*	*	*	*	*	*	*	*	*	*	*	*	*	*
!LO:N:vis=2	!	!	!	!	!	!	!	!	!	!	!	!	!	!	!	!	!	!	!	!	!
(<8GG/L	2GG\	(>8cc\L	.	1G	.	2c/	1G	no-	.	1ryy	.	.	1ryy	.	.	(>2c\	.	.	(>2ee-\	De-	.
8C/	.	8e-\	.	.	.	.	.	.	.	.	.	.	.	.	.	.	.	.	.	.	.
8E-/	.	8g\	.	.	.	.	.	.	.	.	.	.	.	.	.	.	.	.	.	.	.
8G/J)	.	8cc\J)	.	.	.	.	.	.	.	.	.	.	.	.	.	.	.	.	.	.	.
.	.	.	.	.	.	.	.	.	.	.	.	.	.	.	.	16qqd/LL	.	.	(<16qqff/LL	.	.
.	.	.	.	.	.	.	.	.	.	.	.	.	.	.	.	16qqc/	.	.	16qqee-/	.	.
.	.	.	.	.	.	.	.	.	.	.	.	.	.	.	.	16qqBn/	.	.	16qqdd/	.	.
.	.	.	.	.	.	.	.	.	.	.	.	.	.	.	.	16qqc/JJ	.	.	16qqee-/JJ)	.	.
!LO:N:vis=2	!	!	!	!	!	!	!	!	!	!	!	!	!	!	!	!	!	!	!	!	!
(<8GG/L	2GG\	(>8ee-\L	.	.	.	2Bn/	.	.	.	.	.	.	.	.	.	4e-\	.	.	4gg\	.	.
8BBn/	.	8g\	.	.	.	.	.	.	.	.	.	.	.	.	.	.	.	.	.	.	.
8D/	.	8f\	.	.	.	.	.	.	.	.	.	.	.	.	.	4d\)	.	.	4ff\)	.	.
8G/J)	.	8dd\J)	.	.	.	.	.	.	.	.	.	.	.	.	.	.	.	.	.	.	.
*	*	*	*	*	*	*v	*v	*	*	*	*	*	*	*	*	*	*	*	*	*	*
!!LO:LB:g=original
=75	=75	=75	=75	=75	=75	=75	=75	=75	=75	=75	=75	=75	=75	=75	=75	=75	=75	=75	=75	=75
!LO:N:vis=2	!	!	!	!	!	!	!	!	!	!	!	!	!	!	!	!	!	!	!	!
(<8C/L	2C\	(>8cc\L	.	2C/	.	2c 2E-/	-bis	.	1ryy	.	.	1ryy	.	.	4c\	.	.	4ee-\	-i	.
8E-/	.	8e-\	.	.	.	.	.	.	.	.	.	.	.	.	.	.	.	.	.	.
8G/	.	8g\	.	.	.	.	.	.	.	.	.	.	.	.	4r	.	.	4r	.	.
8c/J)	.	8bn\J)	.	.	.	.	.	.	.	.	.	.	.	.	.	.	.	.	.	.
*rep	*rep	*	*	*	*	*	*	*	*	*	*	*	*	*	*	*	*	*	*	*
!LO:N:vis=2	!	!	!	!	!	!	!	!	!	!	!	!	!	!	!	!	!	!	!	!
(<8C/L	2C\	(>8cc\L	.	2r	.	2r	.	.	.	.	.	.	.	.	4r	.	.	4r	.	.
8E-/	.	8g\	.	.	.	.	.	.	.	.	.	.	.	.	.	.	.	.	.	.
8G/	.	8cc\	.	.	.	.	.	.	.	.	.	.	.	.	4c\	.	.	4cc\	qui	.
8c/J)	.	8dd\J)	.	.	.	.	.	.	.	.	.	.	.	.	.	.	.	.	.	.
*Xrep	*Xrep	*	*	*	*	*	*	*	*	*	*	*	*	*	*	*	*	*	*	*
=76	=76	=76	=76	=76	=76	=76	=76	=76	=76	=76	=76	=76	=76	=76	=76	=76	=76	=76	=76	=76
!LO:N:vis=2	!	!	!	!	!	!	!	!	!	!	!	!	!	!	!	!	!	!	!	!
(<8C/L	2C\	(>8een\L	.	2r	.	2r	.	.	1ryy	.	.	1ryy	.	.	(>4.en\	.	.	(>4.cc\	tol-	.
8En/	.	8g\	.	.	.	.	.	.	.	.	.	.	.	.	.	.	.	.	.	.
8G/	.	8cc\	.	.	.	.	.	.	.	.	.	.	.	.	.	.	.	.	.	.
8B-X/J)	.	8dd#X\J)	.	.	.	.	.	.	.	.	.	.	.	.	8d#X\)	.	.	8bn\)	.	.
*rep	*rep	*	*	*	*	*	*	*	*	*	*	*	*	*	*	*	*	*	*	*
!LO:N:vis=2	!	!	!	!	!	!	!	!	!	!	!	!	!	!	!	!	!	!	!	!
(<8C/L	2C\	(>8ee\L	.	4C/	.	4B- 4G/	mi-	.	.	.	.	.	.	.	4e\	.	.	4cc\	-lis	.
8EnX/	.	8cc\	.	.	.	.	.	.	.	.	.	.	.	.	.	.	.	.	.	.
8G/	.	8ff\	.	4C/	.	4B- 4G/	-se-	.	.	.	.	.	.	.	4f\	.	.	4dd\	pec-	.
8B-X/J)	.	8cc\J)	.	.	.	.	.	.	.	.	.	.	.	.	.	.	.	.	.	.
*Xrep	*Xrep	*	*	*	*	*	*	*	*	*	*	*	*	*	*	*	*	*	*	*
=77	=77	=77	=77	=77	=77	=77	=77	=77	=77	=77	=77	=77	=77	=77	=77	=77	=77	=77	=77	=77
*rep	*rep	*	*	*	*	*	*	*	*	*	*	*	*	*	*	*	*	*	*	*
!LO:N:vis=2	!	!	!	!	!	!	!	!	!	!	!	!	!	!	!	!	!	!	!	!
(<8C/L	2C\	(>8gg\L	.	2C/	.	2B- 2G/	-re-	.	1ryy	.	.	1ryy	.	.	(>4g\	.	.	(>2een\	-ca-	.
8En/	.	8een\	.	.	.	.	.	.	.	.	.	.	.	.	.	.	.	.	.	.
8G/	.	8cc\	.	.	.	.	.	.	.	.	.	.	.	.	4c\	.	.	.	.	.
8B-X/J)	.	8g\J)	.	.	.	.	.	.	.	.	.	.	.	.	.	.	.	.	.	.
!LO:N:vis=2	!	!	!	!	!	!	!	!	!	!	!	!	!	!	!	!	!	!	!	!
(<8C/L	2C\	(>8bn\L	.	2C/	.	2B- 2G/	-re	.	.	.	.	.	.	.	4dn\)	.	.	4ff\)	.	.
8EnX/	.	8dd\	.	.	.	.	.	.	.	.	.	.	.	.	.	.	.	.	.	.
8G/	.	8b-X\	.	.	.	.	.	.	.	.	.	.	.	.	4en\	.	.	4gg\	-ta	.
8B-X/J)	.	8een\J)	.	.	.	.	.	.	.	.	.	.	.	.	.	.	.	.	.	.
*Xrep	*Xrep	*	*	*	*	*	*	*	*	*	*	*	*	*	*	*	*	*	*	*
=78	=78	=78	=78	=78	=78	=78	=78	=78	=78	=78	=78	=78	=78	=78	=78	=78	=78	=78	=78	=78
*	*	*	*	*	*	*^	*	*	*	*	*	*	*	*	*	*	*	*	*	*
!LO:N:vis=2	!	!	!	!	!	!	!	!	!	!	!	!	!	!	!	!	!	!	!	!	!
(<8FF/L	2FF\	(>8a-X\L	.	1F	.	1A-	1A-	no-	.	1ryy	.	.	1ryy	.	.	1f	.	.	1aa-	mun-	.
8AA-/	.	8ff\	.	.	.	.	.	.	.	.	.	.	.	.	.	.	.	.	.	.	.
8C/	.	8bn\	.	.	.	.	.	.	.	.	.	.	.	.	.	.	.	.	.	.	.
8F/J)	.	8cc\J)	.	.	.	.	.	.	.	.	.	.	.	.	.	.	.	.	.	.	.
*rep	*rep	*	*	*	*	*	*	*	*	*	*	*	*	*	*	*	*	*	*	*	*
!LO:N:vis=2	!	!	!	!	!	!	!	!	!	!	!	!	!	!	!	!	!	!	!	!	!
(<8FF/L	2FF\	(>8dd-X\L	.	.	.	.	.	.	.	.	.	.	.	.	.	.	.	.	.	.	.
8AA-/	.	8cc\	.	.	.	.	.	.	.	.	.	.	.	.	.	.	.	.	.	.	.
8C/	.	8aa-\	.	.	.	.	.	.	.	.	.	.	.	.	.	.	.	.	.	.	.
8F/J)	.	8ff\J)	.	.	.	.	.	.	.	.	.	.	.	.	.	.	.	.	.	.	.
*Xrep	*Xrep	*	*	*	*	*	*	*	*	*	*	*	*	*	*	*	*	*	*	*	*
=79	=79	=79	=79	=79	=79	=79	=79	=79	=79	=79	=79	=79	=79	=79	=79	=79	=79	=79	=79	=79	=79
!LO:N:vis=2	!	!	!	!	!	!	!	!	!	!	!	!	!	!	!	!	!	!	!	!	!
(<8FF/L	2FF\	(>8cc\L	.	2F\	.	2A-/	2A-\	-bis	.	1ryy	.	.	1ryy	.	.	4F/	.	.	4a-/	-di	.
8AA-/	.	8ff\	.	.	.	.	.	.	.	.	.	.	.	.	.	.	.	.	.	.	.
8C/	.	8bn\	.	.	.	.	.	.	.	.	.	.	.	.	.	4r	.	.	4r	.	.
8F/J)	.	8cc\J)	.	.	.	.	.	.	.	.	.	.	.	.	.	.	.	.	.	.	.
*rep	*rep	*	*	*	*	*	*	*	*	*	*	*	*	*	*	*	*	*	*	*	*
!LO:N:vis=2	!	!	!	!	!	!	!	!	!	!	!	!	!	!	!	!	!	!	!	!	!
(<8FF/L	2FF\	(>8ff\L	.	2r	.	2rB	2ryy	.	.	.	.	.	.	.	.	4r	.	.	4r	.	.
8AA-/	.	8cc\	.	.	.	.	.	.	.	.	.	.	.	.	.	.	.	.	.	.	.
8C/	.	8a-\	.	.	.	.	.	.	.	.	.	.	.	.	.	4f\	.	.	4dd\	qui	.
8F/J)	.	8f\J)	.	.	.	.	.	.	.	.	.	.	.	.	.	.	.	.	.	.	.
*Xrep	*Xrep	*	*	*	*	*	*	*	*	*	*	*	*	*	*	*	*	*	*	*	*
*	*	*	*	*	*	*v	*v	*	*	*	*	*	*	*	*	*	*	*	*	*	*
=80	=80	=80	=80	=80	=80	=80	=80	=80	=80	=80	=80	=80	=80	=80	=80	=80	=80	=80	=80	=80
!LO:N:vis=2	!	!	!	!	!	!	!	!	!	!	!	!	!	!	!	!	!	!	!	!
8GG/L	2GG\	(>8e-\L	.	1r	.	1r	.	.	1ryy	.	.	1ryy	.	.	2e-\	.	.	2cc\	tol-	.
8C/	.	8ee-\	.	.	.	.	.	.	.	.	.	.	.	.	.	.	.	.	.	.
8E-/	.	8g\	.	.	.	.	.	.	.	.	.	.	.	.	.	.	.	.	.	.
8G/J	.	8e-\J)	.	.	.	.	.	.	.	.	.	.	.	.	.	.	.	.	.	.
*rep	*rep	*	*	*	*	*	*	*	*	*	*	*	*	*	*	*	*	*	*	*
!LO:N:vis=2	!	!	!	!	!	!	!	!	!	!	!	!	!	!	!	!	!	!	!	!
8GG/L	2GG\	(>8bn\L	.	.	.	.	.	.	.	.	.	.	.	.	4d\	.	.	4bn\	-lis	.
8C/	.	8e-\	.	.	.	.	.	.	.	.	.	.	.	.	.	.	.	.	.	.
8E-/	.	8g\	.	.	.	.	.	.	.	.	.	.	.	.	4c\	.	.	4cc\	pec-	.
8G/J	.	8cc\J)	.	.	.	.	.	.	.	.	.	.	.	.	.	.	.	.	.	.
*Xrep	*Xrep	*	*	*	*	*	*	*	*	*	*	*	*	*	*	*	*	*	*	*
=81	=81	=81	=81	=81	=81	=81	=81	=81	=81	=81	=81	=81	=81	=81	=81	=81	=81	=81	=81	=81
!LO:N:vis=2	!	!	!	!	!	!	!	!	!	!	!	!	!	!	!	!	!	!	!	!
(<8FF#X/L	2FF#\	(>8e-\L	.	1r	.	1r	.	.	1ryy	.	.	1ryy	.	.	(>2e-\	.	.	(>2cc\	-ca-	.
8C/	.	8ee-\	.	.	.	.	.	.	.	.	.	.	.	.	.	.	.	.	.	.
8E-/	.	8an\	.	.	.	.	.	.	.	.	.	.	.	.	.	.	.	.	.	.
8F#X/J)	.	8f\J)	.	.	.	.	.	.	.	.	.	.	.	.	.	.	.	.	.	.
*rep	*rep	*	*	*	*	*	*	*	*	*	*	*	*	*	*	*	*	*	*	*
!LO:N:vis=2	!	!	!	!	!	!	!	!	!	!	!	!	!	!	!	!	!	!	!	!
(<8FF#X/L	2FF#X\	(>8bn\L	.	.	.	.	.	.	.	.	.	.	.	.	4d\)	.	.	4bn\)	.	.
8C/	.	8e-\	.	.	.	.	.	.	.	.	.	.	.	.	.	.	.	.	.	.
8E-/	.	8a\	.	.	.	.	.	.	.	.	.	.	.	.	4c\	.	.	4cc\	-ta	.
8F#X/J)	.	8cc\J)	.	.	.	.	.	.	.	.	.	.	.	.	.	.	.	.	.	.
*Xrep	*Xrep	*	*	*	*	*	*	*	*	*	*	*	*	*	*	*	*	*	*	*
=82	=82	=82	=82	=82	=82	=82	=82	=82	=82	=82	=82	=82	=82	=82	=82	=82	=82	=82	=82	=82
!LO:N:vis=2	!	!	!	!	!	!	!	!	!	!	!	!	!	!	!	!	!	!	!	!
(<8GG/L	2GG\	(>8bn\L	.	1r	.	1r	.	.	1ryy	.	.	1ryy	.	.	1Bn	.	.	1dd	mun-	.
8BBn/	.	8g\	.	.	.	.	.	.	.	.	.	.	.	.	.	.	.	.	.	.
8D/	.	8f#X\	.	.	.	.	.	.	.	.	.	.	.	.	.	.	.	.	.	.
8G/J)	.	8g\J)	.	.	.	.	.	.	.	.	.	.	.	.	.	.	.	.	.	.
*rep	*rep	*	*	*	*	*	*	*	*	*	*	*	*	*	*	*	*	*	*	*
!LO:N:vis=2	!	!	!	!	!	!	!	!	!	!	!	!	!	!	!	!	!	!	!	!
(<8GG/L	2GG\	(>8b\L	.	.	.	.	.	.	.	.	.	.	.	.	.	.	.	.	.	.
8BBnX/	.	8g\	.	.	.	.	.	.	.	.	.	.	.	.	.	.	.	.	.	.
8D/	.	8dd\	.	.	.	.	.	.	.	.	.	.	.	.	.	.	.	.	.	.
8G/J)	.	8b\J)	.	.	.	.	.	.	.	.	.	.	.	.	.	.	.	.	.	.
*Xrep	*Xrep	*	*	*	*	*	*	*	*	*	*	*	*	*	*	*	*	*	*	*
!!LO:PB:g=original
=83	=83	=83	=83	=83	=83	=83	=83	=83	=83	=83	=83	=83	=83	=83	=83	=83	=83	=83	=83	=83
*	*	*	*	*	*	*^	*	*	*^	*	*	*	*	*	*	*	*	*	*	*
!	!	!	!	!	!	!LO:TX:i:b:t=Coro:rj	!	!	!	!	!	!	!	!LO:TX:i:a:t=Soprano 1.o	!	!	!	!	!	!	!	!
!LO:N:vis=2	!	!	!	!LO:TX:i:a:t=Baſsi	!	!LO:TX:i:a:t=Tenori	!	!	!	!LO:TX:i:a:t=Soprano 2.o	!	!	!	!LO:TX:i:b:t=Coro:rj	!	!	!LO:TX:i:a:t=Solo Tenor	!	!	!LO:TX:i:a:t=Solo Sopran	!	!
!	!	!	!	!	!LO:DY:b	!	!	!	!LO:DY:b	!	!	!	!LO:DY:b	!	!	!LO:DY:b	!	!	!	!	!	!
(<8GG/L	2GG\	(>8gg\L	.	2r	pp	2rB	2ryy	.	pp	2r	2ryy	.	pp	2r	.	pp	4d\	di	.	4bn\	-di	.
8BBn/	.	8dd\	.	.	.	.	.	.	.	.	.	.	.	.	.	.	.	.	.	.	.	.
!	!	!	!LO:DY:b	!	!	!	!	!	!	!	!	!	!	!	!	!	!	!	!	!	!	!
8D/	.	8bn\	pp	.	.	.	.	.	.	.	.	.	.	.	.	.	4r	.	.	4r	.	.
8G/J)	.	8dd\J)	.	.	.	.	.	.	.	.	.	.	.	.	.	.	.	.	.	.	.	.
*rep	*rep	*	*	*	*	*	*	*	*	*	*	*	*	*	*	*	*	*	*	*	*	*
!LO:N:vis=2	!	!	!	!	!	!	!	!	!	!	!	!	!	!	!	!	!	!	!	!	!	!
(<8GG/L	2GG\	(<8g/L	.	4G\	.	4G/	4G\	mi-	.	4g/	4g\	mi-	.	4g/	mi-	.	2r	.	.	2r	.	.
8BBnX/	.	8b/	.	.	.	.	.	.	.	.	.	.	.	.	.	.	.	.	.	.	.	.
8D/	.	8d/	.	4G\	.	4G/	4G\	-se-	.	4g/	4g\	-se	.	4g/	-se-	.	.	.	.	.	.	.
8G/J)	.	8g/J)	.	.	.	.	.	.	.	.	.	.	.	.	.	.	.	.	.	.	.	.
*Xrep	*Xrep	*	*	*	*	*	*	*	*	*	*	*	*	*	*	*	*	*	*	*	*	*
=84	=84	=84	=84	=84	=84	=84	=84	=84	=84	=84	=84	=84	=84	=84	=84	=84	=84	=84	=84	=84	=84	=84
!LO:N:vis=2	!	!	!	!	!	!	!	!	!	!	!	!	!	!	!	!	!	!	!	!	!	!
(<8GG/L	2GG\	(<8Bn/L	.	1A-	.	1A-	1A-	-re-	.	1a-	1a-	.	.	1a-	-re-	.	1r	.	.	1r	.	.
8BBn/	.	8d/	.	.	.	.	.	.	.	.	.	.	.	.	.	.	.	.	.	.	.	.
8D/	.	8f/	.	.	.	.	.	.	.	.	.	.	.	.	.	.	.	.	.	.	.	.
8F/J)	.	8a-X/J)	.	.	.	.	.	.	.	.	.	.	.	.	.	.	.	.	.	.	.	.
*rep	*rep	*rep	*	*	*	*	*	*	*	*	*	*	*	*	*	*	*	*	*	*	*	*
!LO:N:vis=2	!	!	!	!	!	!	!	!	!	!	!	!	!	!	!	!	!	!	!	!	!	!
(<8GG/L	2GG\	(<8BnX/L	.	.	.	.	.	.	.	.	.	.	.	.	.	.	.	.	.	.	.	.
8BBnX/	.	8d/	.	.	.	.	.	.	.	.	.	.	.	.	.	.	.	.	.	.	.	.
8D/	.	8f/	.	.	.	.	.	.	.	.	.	.	.	.	.	.	.	.	.	.	.	.
8F/J)	.	8a-X/J)	.	.	.	.	.	.	.	.	.	.	.	.	.	.	.	.	.	.	.	.
*Xrep	*Xrep	*Xrep	*	*	*	*	*	*	*	*	*	*	*	*	*	*	*	*	*	*	*	*
=85	=85	=85	=85	=85	=85	=85	=85	=85	=85	=85	=85	=85	=85	=85	=85	=85	=85	=85	=85	=85	=85	=85
*rep	*rep	*rep	*	*	*	*	*	*	*	*	*	*	*	*	*	*	*	*	*	*	*	*
!LO:N:vis=2	!	!	!	!	!	!	!	!	!	!	!	!	!	!	!	!	!	!	!	!	!	!
(<8GG/L	2GG\	(<8Bn/L	.	2A-\	.	2A-/	2A-\	-re	.	2a-/	2a-\	.	.	2a-/	-re	.	1r	.	.	1r	.	.
8BBn/	.	8d/	.	.	.	.	.	.	.	.	.	.	.	.	.	.	.	.	.	.	.	.
8D/	.	8f/	.	.	.	.	.	.	.	.	.	.	.	.	.	.	.	.	.	.	.	.
8F/J)	.	8a-X/J)	.	.	.	.	.	.	.	.	.	.	.	.	.	.	.	.	.	.	.	.
!LO:N:vis=2	!	!	!	!	!	!	!	!	!LO:HP:a:t=cres	!	!	!	!	!	!	!LO:HP:a:t=cres	!	!	!	!	!	!
(<8GG/L	2GG\	(<8BnX/L	.	4A-\	.	4A-/	4A-\	mi-	<	4a-/	4a-\	.	.	4a-/	mi-	<	.	.	.	.	.	.
8BBnX/	.	8d/	.	.	.	.	.	.	.	.	.	.	.	.	.	.	.	.	.	.	.	.
8D/	.	8f/	.	4A-\	.	4A-/	4A-\	-se-	.	4a-/	4a-\	.	.	4a-/	-se-	.	.	.	.	.	.	.
8F/J)	.	8a-X/J)	.	.	.	.	.	.	.	.	.	.	.	.	.	.	.	.	.	.	.	.
*Xrep	*Xrep	*Xrep	*	*	*	*	*	*	*	*	*	*	*	*	*	*	*	*	*	*	*	*
=86	=86	=86	=86	=86	=86	=86	=86	=86	=86	=86	=86	=86	=86	=86	=86	=86	=86	=86	=86	=86	=86	=86
!LO:N:vis=2	!	!	!	!	!	!	!	!	!	!	!	!	!	!	!	!	!	!	!	!	!	!
(<8GG/L	2GG\	(<8c/L	.	1An	.	1An	1An	-re-	.	1an	1an	.	.	1an	-re-	.	1r	.	.	1r	.	.
8C/	.	8e-/	.	.	.	.	.	.	.	.	.	.	.	.	.	.	.	.	.	.	.	.
8E-/	.	8f#X/	.	.	.	.	.	.	.	.	.	.	.	.	.	.	.	.	.	.	.	.
8F#X/J)	.	8an/J)	.	.	.	.	.	.	.	.	.	.	.	.	.	.	.	.	.	.	.	.
*rep	*rep	*rep	*	*	*	*	*	*	*	*	*	*	*	*	*	*	*	*	*	*	*	*
!LO:N:vis=2	!	!	!	!	!	!	!	!	!	!	!	!	!	!	!	!	!	!	!	!	!	!
(<8GG/L	2GG\	(<8c/L	.	.	.	.	.	.	.	.	.	.	.	.	.	.	.	.	.	.	.	.
8C/	.	8e-/	.	.	.	.	.	.	.	.	.	.	.	.	.	.	.	.	.	.	.	.
8E-/	.	8f#X/	.	.	.	.	.	.	.	.	.	.	.	.	.	.	.	.	.	.	.	.
8F#X/J)	.	8anX/J)	.	.	.	.	.	.	.	.	.	.	.	.	.	.	.	.	.	.	.	.
*Xrep	*Xrep	*Xrep	*	*	*	*	*	*	*	*	*	*	*	*	*	*	*	*	*	*	*	*
=87	=87	=87	=87	=87	=87	=87	=87	=87	=87	=87	=87	=87	=87	=87	=87	=87	=87	=87	=87	=87	=87	=87
*rep	*rep	*rep	*	*	*	*	*	*	*	*	*	*	*	*	*	*	*	*	*	*	*	*
!LO:N:vis=2	!	!	!	!	!	!	!	!	!	!	!	!	!	!	!	!	!	!	!	!	!	!
(<8GG/L	2GG\	(<8c/L	.	2An\	.	2An/	2An\	-re	.	2an/	2an\	.	.	2an/	-re	.	1r	.	.	1r	.	.
8C/	.	8e-/	.	.	.	.	.	.	.	.	.	.	.	.	.	.	.	.	.	.	.	.
!	!	!	!LO:HP:b:t=cres	!	!	!	!	!	!	!	!	!	!	!	!	!	!	!	!	!	!	!
8E-/	.	8f#X/	<	.	.	.	.	.	.	.	.	.	.	.	.	.	.	.	.	.	.	.
8F#X/J)	.	8an/J)	.	.	.	.	.	.	.	.	.	.	.	.	.	.	.	.	.	.	.	.
!LO:N:vis=2	!	!	!	!	!	!	!	!	!	!	!	!	!	!	!	!	!	!	!	!	!	!
(<8GG/L	2GG\	(<8c/L	.	4A\	.	4A/	4A\	mi-	.	4a/	4a\	.	.	4a/	mi-	.	.	.	.	.	.	.
8C/	.	8e-/	.	.	.	.	.	.	.	.	.	.	.	.	.	.	.	.	.	.	.	.
8E-/	.	8f#X/	.	4A\	.	4A/	4A\	-se-	.	4a/	4a\	.	.	4a/	-se-	.	.	.	.	.	.	.
8F#X/J)	.	8anX/J)	.	.	.	.	.	.	.	.	.	.	.	.	.	.	.	.	.	.	.	.
*Xrep	*Xrep	*Xrep	*	*	*	*	*	*	*	*	*	*	*	*	*	*	*	*	*	*	*	*
=88	=88	=88	=88	=88	=88	=88	=88	=88	=88	=88	=88	=88	=88	=88	=88	=88	=88	=88	=88	=88	=88	=88
!LO:N:vis=2	!	!	!	!	!	!	!	!	!	!	!	!	!	!	!	!	!	!	!	!	!	!
(<8GG/L	2GG\	(<8c#X/L	.	1B-	.	1B-	1B-	-re-	.	1b-	1b-	.	.	1b-	-re-	.	1r	.	.	1r	.	.
8BB-/	.	8en/	.	.	.	.	.	.	.	.	.	.	.	.	.	.	.	.	.	.	.	.
8C#X/	.	8g/	.	.	.	.	.	.	.	.	.	.	.	.	.	.	.	.	.	.	.	.
8En/J)	.	8b-/J)	.	.	.	.	.	.	.	.	.	.	.	.	.	.	.	.	.	.	.	.
*rep	*rep	*rep	*	*	*	*	*	*	*	*	*	*	*	*	*	*	*	*	*	*	*	*
!LO:N:vis=2	!	!	!	!	!	!	!	!	!	!	!	!	!	!	!	!	!	!	!	!	!	!
(<8GG/L	2GG\	(<8c#X/L	.	.	.	.	.	.	.	.	.	.	.	.	.	.	.	.	.	.	.	.
8BB-/	.	8enX/	.	.	.	.	.	.	.	.	.	.	.	.	.	.	.	.	.	.	.	.
8C#X/	.	8g/	.	.	.	.	.	.	.	.	.	.	.	.	.	.	.	.	.	.	.	.
8En/J)	.	8b-/J)	.	.	.	.	.	.	.	.	.	.	.	.	.	.	.	.	.	.	.	.
*Xrep	*Xrep	*Xrep	*	*	*	*	*	*	*	*	*	*	*	*	*	*	*	*	*	*	*	*
=89	=89	=89	=89	=89	=89	=89	=89	=89	=89	=89	=89	=89	=89	=89	=89	=89	=89	=89	=89	=89	=89	=89
*rep	*rep	*rep	*	*	*	*	*	*	*	*	*	*	*	*	*	*	*	*	*	*	*	*
!LO:N:vis=2	!	!	!	!	!	!	!	!	!	!	!	!	!	!	!	!	!	!	!	!	!	!
(<8GG/L	2GG\	(<8c#X/L	.	2B-\	.	2B-/	2B-\	-re	.	2b-/	2b-\	.	.	2b-/	-re	.	1r	.	.	1r	.	.
8BB-/	.	8en/	.	.	.	.	.	.	.	.	.	.	.	.	.	.	.	.	.	.	.	.
8C#X/	.	8g/	.	.	.	.	.	.	.	.	.	.	.	.	.	.	.	.	.	.	.	.
8En/J)	.	8b-/J)	.	.	.	.	.	.	.	.	.	.	.	.	.	.	.	.	.	.	.	.
!LO:N:vis=2	!	!	!	!	!	!	!	!	!	!	!	!	!	!	!	!	!	!	!	!	!	!
(<8GG/L	2GG\	(<8c#X/L	.	4B-\	.	4B-/	4B-\	mi-	.	4b-/	4b-\	.	.	4b-/	mi-	.	.	.	.	.	.	.
8BB-/	.	8enX/	.	.	.	.	.	.	.	.	.	.	.	.	.	.	.	.	.	.	.	.
8C#X/	.	8g/	.	4B-\	.	4B-/	4B-\	-se-	.	4b-/	4b-\	.	.	4b-/	-se-	.	.	.	.	.	.	.
8EnX/J)	.	8b-/J)	.	.	.	.	.	.	.	.	.	.	.	.	.	.	.	.	.	.	.	.
*Xrep	*Xrep	*Xrep	*	*	*	*	*	*	*	*	*	*	*	*	*	*	*	*	*	*	*	*
=90	=90	=90	=90	=90	=90	=90	=90	=90	=90	=90	=90	=90	=90	=90	=90	=90	=90	=90	=90	=90	=90	=90
!LO:N:vis=2	!	!	!	!	!	!	!	!	!	!	!	!	!	!	!	!	!	!	!	!	!	!
(<8GG/L	2GG\	(<8d/L	.	(>1Bn	.	(>1Bn	1Bn	-re-	.	(>1bn	1b	.	.	(>1bn	-re-	.	1r	.	.	1r	.	.
8BBn/	.	8f/	.	.	.	.	.	.	.	.	.	.	.	.	.	.	.	.	.	.	.	.
8D/	.	8a-X/	.	.	.	.	.	.	.	.	.	.	.	.	.	.	.	.	.	.	.	.
8F/J)	.	8bn/J)	.	.	.	.	.	.	.	.	.	.	.	.	.	.	.	.	.	.	.	.
*rep	*rep	*rep	*	*	*	*	*	*	*	*	*	*	*	*	*	*	*	*	*	*	*	*
!LO:N:vis=2	!	!	!	!	!	!	!	!	!	!	!	!	!	!	!	!	!	!	!	!	!	!
(<8GG/L	2GG\	(<8d/L	.	.	.	.	.	.	.	.	.	.	.	.	.	.	.	.	.	.	.	.
8BBnX/	.	8f/	.	.	.	.	.	.	.	.	.	.	.	.	.	.	.	.	.	.	.	.
8D/	.	8a-X/	.	.	.	.	.	.	.	.	.	.	.	.	.	.	.	.	.	.	.	.
8F/J)	.	8bnX/J)	.	.	.	.	.	.	.	.	.	.	.	.	.	.	.	.	.	.	.	.
*Xrep	*Xrep	*Xrep	*	*	*	*	*	*	*	*	*	*	*	*	*	*	*	*	*	*	*	*
=91	=91	=91	=91	=91	=91	=91	=91	=91	=91	=91	=91	=91	=91	=91	=91	=91	=91	=91	=91	=91	=91	=91
!LO:N:vis=2	!	!	!	!	!	!	!	!	!	!	!	!	!	!	!	!	!	!	!	!	!	!
(<8GG/L	2GG\	(<8c/L	.	2c\)	.	2c/)	2c\	-re	.	2cc/)	2cc\	.	.	2cc\)	.	.	1r	.	.	1r	.	.
8C/	.	8e-/	.	.	.	.	.	.	.	.	.	.	.	.	.	.	.	.	.	.	.	.
8E-/	.	8g/	.	.	.	.	.	.	.	.	.	.	.	.	.	.	.	.	.	.	.	.
8G/J)	.	8cc/J)	.	.	.	.	.	.	.	.	.	.	.	.	.	.	.	.	.	.	.	.
!LO:N:vis=2	!	!	!	!	!	!	!	!	!	!	!	!	!	!	!	!	!	!	!	!	!	!
(<8GG/L	2GG\	(<8d/L	.	2d\	.	2d/	2d\	.	.	2dd/	2dd\	.	.	2dd\	-re	.	.	.	.	.	.	.
8BBn/	.	8g/	.	.	.	.	.	.	.	.	.	.	.	.	.	.	.	.	.	.	.	.
8D/	.	8bn/	.	.	.	.	.	.	.	.	.	.	.	.	.	.	.	.	.	.	.	.
8G/J)	.	8dd/J)	.	.	.	.	.	.	.	.	.	.	.	.	.	.	.	.	.	.	.	.
!!LO:PB:g=original
=92	=92	=92	=92	=92	=92	=92	=92	=92	=92	=92	=92	=92	=92	=92	=92	=92	=92	=92	=92	=92	=92	=92
!LO:N:vis=2	!	!	!LO:DY:b:rj	!	!LO:DY:b:rj	!	!	!	!LO:DY:b:rj	!	!	!	!LO:DY:b:rj	!	!	!LO:DY:b:rj	!	!	!	!	!	!
(<8GG/L	2GG\	(<8f#X/L	ff	1e-	ff	1e-	1e-	no	ff	1ee-	1ee-	no	ff	[>1ee-	no-	ff	1r	.	.	1r	.	.
8C/	.	8an/	.	.	.	.	.	.	.	.	.	.	.	.	.	.	.	.	.	.	.	.
8E-/	.	8cc/	.	.	.	.	.	.	.	.	.	.	.	.	.	.	.	.	.	.	.	.
8F#X/J)	.	8ee-/J)	.	.	.	.	.	.	.	.	.	.	.	.	.	.	.	.	.	.	.	.
*rep	*rep	*	*	*	*	*	*	*	*	*	*	*	*	*	*	*	*	*	*	*	*	*
!LO:N:vis=2	!	!	!	!	!	!	!	!	!	!	!	!	!	!	!	!	!	!	!	!	!	!
(<8GG/L	2GG\	(>8ff#X\L	.	.	.	.	.	.	.	.	.	.	.	.	.	.	.	.	.	.	.	.
8C/	.	8ee-\	.	.	.	.	.	.	.	.	.	.	.	.	.	.	.	.	.	.	.	.
8E-/	.	8aan\	.	.	.	.	.	.	.	.	.	.	.	.	.	.	.	.	.	.	.	.
8F#X/J)	.	8ff#\J)	.	.	.	.	.	.	.	.	.	.	.	.	.	.	.	.	.	.	.	.
*Xrep	*Xrep	*	*	*	*	*	*	*	*	*	*	*	*	*	*	*	*	*	*	*	*	*
=93	=93	=93	=93	=93	=93	=93	=93	=93	=93	=93	=93	=93	=93	=93	=93	=93	=93	=93	=93	=93	=93	=93
*rep	*rep	*	*	*	*	*	*	*	*	*	*	*	*	*	*	*	*	*	*	*	*	*
!LO:N:vis=2	!	!	!	!	!	!	!	!	!	!	!	!	!	!	!	!	!	!	!LO:DY:b:rj	!	!	!LO:DY:b:rj
(<8GG/L	2GG\	(>8ccc\L	.	2e-\	.	2e-/	2e-\	.	.	2ee-/	2ee-\	.	.	2ee-\]	.	.	2f#X\	.	ff	2aan\	A-	ff
8C/	.	8aan\	.	.	.	.	.	.	.	.	.	.	.	.	.	.	.	.	.	.	.	.
8E-/	.	8ff#X\	.	.	.	.	.	.	.	.	.	.	.	.	.	.	.	.	.	.	.	.
8F#X/J)	.	8ee-\J)	.	.	.	.	.	.	.	.	.	.	.	.	.	.	.	.	.	.	.	.
!LO:N:vis=2	!	!	!	!	!	!	!	!	!	!	!	!	!	!	!	!	!	!	!	!	!	!
(<8GG/L	2GG\	(<8cc/L	.	2c\	.	2c/	2c\	.	.	2cc/	2cc\	.	.	2cc\	.	.	2f#\	.	.	2aa\	-gnus	.
8C/	.	8an/	.	.	.	.	.	.	.	.	.	.	.	.	.	.	.	.	.	.	.	.
8E-/	.	8f#X/	.	.	.	.	.	.	.	.	.	.	.	.	.	.	.	.	.	.	.	.
8F#X/J)	.	8e-/J)	.	.	.	.	.	.	.	.	.	.	.	.	.	.	.	.	.	.	.	.
*Xrep	*Xrep	*	*	*	*	*	*	*	*	*	*	*	*	*	*	*	*	*	*	*	*	*
=94	=94	=94	=94	=94	=94	=94	=94	=94	=94	=94	=94	=94	=94	=94	=94	=94	=94	=94	=94	=94	=94	=94
!LO:N:vis=2	!	!	!	!	!	!	!	!	!	!	!	!	!	!	!	!	!	!	!	!	!	!
(<8GG/L	2GG\	(>8g\L	.	2G\	.	2G/	2G\	.	.	2g/	2g\	.	.	2g/	-bis	.	2g\	.	.	1gg	De-	.
8C/	.	8cc\	.	.	.	.	.	.	.	.	.	.	.	.	.	.	.	.	.	.	.	.
8E-/	.	8ee-\	.	.	.	.	.	.	.	.	.	.	.	.	.	.	.	.	.	.	.	.
8G/J)	.	8cc\J)	.	.	.	.	.	.	.	.	.	.	.	.	.	.	.	.	.	.	.	.
*rep	*rep	*	*	*	*	*	*	*	*	*	*	*	*	*	*	*	*	*	*	*	*	*
!LO:N:vis=2	!	!	!	!	!	!	!	!	!	!	!	!	!	!	!	!	!	!	!	!	!	!
(<8GG/L	2GG\	(>8gg\L	.	2r	.	2rB	2ryy	.	.	2r	2ryy	.	.	2r	.	.	[>2e-\	.	.	.	.	.
8C/	.	8ee-\	.	.	.	.	.	.	.	.	.	.	.	.	.	.	.	.	.	.	.	.
8E-/	.	8cc\	.	.	.	.	.	.	.	.	.	.	.	.	.	.	.	.	.	.	.	.
8G/J)	.	8g\J)	.	.	.	.	.	.	.	.	.	.	.	.	.	.	.	.	.	.	.	.
*Xrep	*Xrep	*	*	*	*	*	*	*	*	*	*	*	*	*	*	*	*	*	*	*	*	*
*	*	*	*	*	*	*v	*v	*	*	*	*	*	*	*	*	*	*	*	*	*	*	*
*	*	*	*	*	*	*	*	*	*v	*v	*	*	*	*	*	*	*	*	*	*	*
=95	=95	=95	=95	=95	=95	=95	=95	=95	=95	=95	=95	=95	=95	=95	=95	=95	=95	=95	=95	=95
!LO:N:vis=2	!	!	!	!	!	!	!	!	!	!	!	!	!	!	!	!	!	!	!	!
(<8GG/L	2GG\	(>8ff#X\L	.	1r	.	1r	.	.	1r	.	.	1r	.	.	2e-\]	.	.	2ff#X\	.	.
8C/	.	8ee-\	.	.	.	.	.	.	.	.	.	.	.	.	.	.	.	.	.	.
8E-/	.	8cc\	.	.	.	.	.	.	.	.	.	.	.	.	.	.	.	.	.	.
8F#X/J)	.	8an\J)	.	.	.	.	.	.	.	.	.	.	.	.	.	.	.	.	.	.
!LO:N:vis=2	!	!	!	!	!	!	!	!	!	!	!	!	!	!	!	!	!	!	!	!
(<8GG/L	2GG\	(>8ffn\L	.	.	.	.	.	.	.	.	.	.	.	.	2d\	.	.	2ffn\	.	.
8BBn/	.	8dd\	.	.	.	.	.	.	.	.	.	.	.	.	.	.	.	.	.	.
8D/	.	8bn\	.	.	.	.	.	.	.	.	.	.	.	.	.	.	.	.	.	.
8Fn/J)	.	8a-X\J)	.	.	.	.	.	.	.	.	.	.	.	.	.	.	.	.	.	.
=96	=96	=96	=96	=96	=96	=96	=96	=96	=96	=96	=96	=96	=96	=96	=96	=96	=96	=96	=96	=96
!LO:N:vis=2	!	!	!	!	!	!	!	!	!	!	!	!	!	!	!	!	!	!	!	!
(<8GG/L	2GG\	(>8ee-\L	.	1r	.	1r	.	.	1r	.	.	1r	.	.	2c\	.	.	2.ee-\	.	.
8C/	.	8cc\	.	.	.	.	.	.	.	.	.	.	.	.	.	.	.	.	.	.
8E-/	.	8g\	.	.	.	.	.	.	.	.	.	.	.	.	.	.	.	.	.	.
8G/J)	.	8e-\J)	.	.	.	.	.	.	.	.	.	.	.	.	.	.	.	.	.	.
!LO:N:vis=2	!	!	!	!	!	!	!	!	!	!	!	!	!	!	!	!	!	!	!	!
(<8FF/L	2FF\	(>8f\L	.	.	.	.	.	.	.	.	.	.	.	.	4g\	.	.	.	.	.
8AA-/	.	8a-\	.	.	.	.	.	.	.	.	.	.	.	.	.	.	.	.	.	.
8D/	.	8dd\	.	.	.	.	.	.	.	.	.	.	.	.	4f\	.	.	4dd\	.	.
8F/J)	.	8a-\J)	.	.	.	.	.	.	.	.	.	.	.	.	.	.	.	.	.	.
=97	=97	=97	=97	=97	=97	=97	=97	=97	=97	=97	=97	=97	=97	=97	=97	=97	=97	=97	=97	=97
!LO:N:vis=2	!	!	!	!	!	!	!	!	!	!	!	!	!	!	!	!	!	!	!	!
(<8GG/L	2GG\	(<8e-/L	.	1r	.	1r	.	.	1r	.	.	1r	.	.	2e-\	.	.	2cc\	.	.
8C/	.	8g/	.	.	.	.	.	.	.	.	.	.	.	.	.	.	.	.	.	.
8E-/	.	8cc/	.	.	.	.	.	.	.	.	.	.	.	.	.	.	.	.	.	.
8G/J)	.	8g/J)	.	.	.	.	.	.	.	.	.	.	.	.	.	.	.	.	.	.
!LO:N:vis=2	!	!	!	!	!	!	!	!	!	!	!	!	!	!	!	!	!	!	!	!
(<8GG/L	2GG\	(<8d/L	.	.	.	.	.	.	.	.	.	.	.	.	2d\	.	.	2bn\	.	.
8BBn/	.	8f/	.	.	.	.	.	.	.	.	.	.	.	.	.	.	.	.	.	.
8D/	.	8bn/	.	.	.	.	.	.	.	.	.	.	.	.	.	.	.	.	.	.
8G/J)	.	8f/J)	.	.	.	.	.	.	.	.	.	.	.	.	.	.	.	.	.	.
=98	=98	=98	=98	=98	=98	=98	=98	=98	=98	=98	=98	=98	=98	=98	=98	=98	=98	=98	=98	=98
*	*	*	*	*	*	*^	*	*	*^	*	*	*	*	*	*	*	*	*	*	*
!LO:N:vis=2	!	!	!	!	!	!	!	!	!	!	!	!	!	!	!	!	!	!	!	!	!	!
4CC/	2CC\	(<8e-X/L	.	2r	.	2rB	2ryy	.	.	2r	2ryy	.	.	2r	.	.	2e-\	.	.	2cc\	-i	.
.	.	8g/	.	.	.	.	.	.	.	.	.	.	.	.	.	.	.	.	.	.	.	.
4C/	.	8cc/	.	.	.	.	.	.	.	.	.	.	.	.	.	.	.	.	.	.	.	.
.	.	8g/J)	.	.	.	.	.	.	.	.	.	.	.	.	.	.	.	.	.	.	.	.
!LO:N:vis=2	!	!	!	!	!	!	!	!	!	!	!	!	!	!	!	!	!	!	!	!	!	!
4CC/	2CC\	(<8e-/L	.	4c\	.	4c/	4c\	mi-	.	4cc/	4cc\	.	.	4cc\	mi-	.	2r	.	.	2r	.	.
.	.	8c/	.	.	.	.	.	.	.	.	.	.	.	.	.	.	.	.	.	.	.	.
4C/	.	8g/	.	4c\	.	4c/	4c\	-se-	.	4cc/	4cc\	.	.	4cc\	-se-	.	.	.	.	.	.	.
.	.	8e-/J)	.	.	.	.	.	.	.	.	.	.	.	.	.	.	.	.	.	.	.	.
=99	=99	=99	=99	=99	=99	=99	=99	=99	=99	=99	=99	=99	=99	=99	=99	=99	=99	=99	=99	=99	=99	=99
*rep	*rep	*	*	*	*	*	*	*	*	*	*	*	*	*	*	*	*	*	*	*	*	*
!LO:N:vis=2	!	!	!	!	!	!	!	!	!	!	!	!	!	!	!	!	!	!	!	!	!	!
4CC/	2CC\	(>8cc\L	.	(>1B-	.	(>1B-	1B-	-re-	.	(>1b-	1b-	.	.	(>1b-	-re-	.	2r	.	.	2r	.	.
.	.	8g\	.	.	.	.	.	.	.	.	.	.	.	.	.	.	.	.	.	.	.	.
4C/	.	8een\	.	.	.	.	.	.	.	.	.	.	.	.	.	.	.	.	.	.	.	.
.	.	8cc\J)	.	.	.	.	.	.	.	.	.	.	.	.	.	.	.	.	.	.	.	.
!LO:N:vis=2	!	!	!	!	!	!	!	!	!	!	!	!	!	!	!	!	!	!	!	!	!	!
4CC/	2CC\	(>8gg\L	.	.	.	.	.	.	.	.	.	.	.	.	.	.	(>2en\	.	.	(>2gg\	A-	.
.	.	8ee\	.	.	.	.	.	.	.	.	.	.	.	.	.	.	.	.	.	.	.	.
4C/	.	8b-\	.	.	.	.	.	.	.	.	.	.	.	.	.	.	.	.	.	.	.	.
.	.	8gg\J)	.	.	.	.	.	.	.	.	.	.	.	.	.	.	.	.	.	.	.	.
*Xrep	*Xrep	*	*	*	*	*	*	*	*	*	*	*	*	*	*	*	*	*	*	*	*	*
!!LO:PB:g=original
=100	=100	=100	=100	=100	=100	=100	=100	=100	=100	=100	=100	=100	=100	=100	=100	=100	=100	=100	=100	=100	=100	=100
!LO:N:vis=2	!	!	!	!	!	!	!	!	!	!	!	!	!	!	!	!	!	!	!	!	!	!
4CC/	2CC\	(>8ff#X\L	.	2An\)	.	2An/)	2An\	.	.	2an/)	2an\	.	.	2an\)	.	.	2d#X\)	.	.	2ff#X\)	.	.
.	.	8dd#X\	.	.	.	.	.	.	.	.	.	.	.	.	.	.	.	.	.	.	.	.
4C/	.	8an\	.	.	.	.	.	.	.	.	.	.	.	.	.	.	.	.	.	.	.	.
.	.	8dd#\J)	.	.	.	.	.	.	.	.	.	.	.	.	.	.	.	.	.	.	.	.
!LO:N:vis=2	!	!	!	!	!	!	!	!	!	!	!	!	!	!	!	!	!	!	!	!	!	!
4CC/	2CC\	(>8ffn\L	.	2A-X\	.	2A-X/	2A-\	-re	.	2a-X/	2a-\	.	.	2a-X\	-re	.	2dn\	.	.	2ffn\	-gnus	.
.	.	8ddn\	.	.	.	.	.	.	.	.	.	.	.	.	.	.	.	.	.	.	.	.
4C/	.	8a-X\	.	.	.	.	.	.	.	.	.	.	.	.	.	.	.	.	.	.	.	.
.	.	8dd\J)	.	.	.	.	.	.	.	.	.	.	.	.	.	.	.	.	.	.	.	.
=101	=101	=101	=101	=101	=101	=101	=101	=101	=101	=101	=101	=101	=101	=101	=101	=101	=101	=101	=101	=101	=101	=101
*rep	*rep	*	*	*	*	*	*	*	*	*	*	*	*	*	*	*	*	*	*	*	*	*
!LO:N:vis=2	!	!	!	!	!	!	!	!	!	!	!	!	!	!	!	!	!	!	!	!	!	!
4CC/	2CC\	(>8een\L	.	1G	.	1G	1G	no-	.	1g	1g	.	.	1g	no-	.	1c	.	.	1een	De-	.
.	.	8cc\	.	.	.	.	.	.	.	.	.	.	.	.	.	.	.	.	.	.	.	.
4C/	.	8g\	.	.	.	.	.	.	.	.	.	.	.	.	.	.	.	.	.	.	.	.
.	.	8cc\J)	.	.	.	.	.	.	.	.	.	.	.	.	.	.	.	.	.	.	.	.
!LO:N:vis=2	!	!	!	!	!	!	!	!	!	!	!	!	!	!	!	!	!	!	!	!	!	!
4CC/	2CC\	(<8en/L	.	.	.	.	.	.	.	.	.	.	.	.	.	.	.	.	.	.	.	.
.	.	8g/	.	.	.	.	.	.	.	.	.	.	.	.	.	.	.	.	.	.	.	.
4C/	.	8c/	.	.	.	.	.	.	.	.	.	.	.	.	.	.	.	.	.	.	.	.
.	.	8e/J)	.	.	.	.	.	.	.	.	.	.	.	.	.	.	.	.	.	.	.	.
*Xrep	*Xrep	*	*	*	*	*	*	*	*	*	*	*	*	*	*	*	*	*	*	*	*	*
=102	=102	=102	=102	=102	=102	=102	=102	=102	=102	=102	=102	=102	=102	=102	=102	=102	=102	=102	=102	=102	=102	=102
*rep	*rep	*	*	*	*	*	*	*	*	*	*	*	*	*	*	*	*	*	*	*	*	*
!LO:N:vis=2	!	!	!	!	!	!	!	!	!	!	!	!	!	!	!	!	!	!	!	!	!	!
4CC/	2CC\	(<8g/L	.	2G\	.	2G/	2G\	-bis	.	2g/	2g\	.	.	2g/	-bis	.	2c\	.	.	2een\	-i	.
.	.	8en/	.	.	.	.	.	.	.	.	.	.	.	.	.	.	.	.	.	.	.	.
4C/	.	8cc/	.	.	.	.	.	.	.	.	.	.	.	.	.	.	.	.	.	.	.	.
.	.	8g/J)	.	.	.	.	.	.	.	.	.	.	.	.	.	.	.	.	.	.	.	.
!LO:N:vis=2	!	!	!	!	!	!	!	!	!	!	!	!	!	!	!	!	!	!	!	!	!	!
4CC/	2CC\	(>8een\L	.	4G\	.	4G/	4G\	mi-	.	4g/	4g\	.	.	4g/	mi-	.	4c\	.	.	4ee\	mi-	.
.	.	8cc\	.	.	.	.	.	.	.	.	.	.	.	.	.	.	.	.	.	.	.	.
4C/	.	8g\	.	4G\	.	4G/	4G\	-se-	.	4g/	4g\	.	.	4g/	-se-	.	4c\	.	.	4ee\	-se-	.
.	.	8e\J)	.	.	.	.	.	.	.	.	.	.	.	.	.	.	.	.	.	.	.	.
*Xrep	*Xrep	*	*	*	*	*	*	*	*	*	*	*	*	*	*	*	*	*	*	*	*	*
=103	=103	=103	=103	=103	=103	=103	=103	=103	=103	=103	=103	=103	=103	=103	=103	=103	=103	=103	=103	=103	=103	=103
*rep	*rep	*	*	*	*	*	*	*	*	*	*	*	*	*	*	*	*	*	*	*	*	*
!LO:N:vis=2	!	!	!	!	!	!	!	!	!	!	!	!	!	!	!	!	!	!	!	!	!	!
4CC/	2CC\	(<8f#X/L	.	1F#X	.	1F#X	1F#	-re-	.	1f#X	1f#	.	.	1f#X	-re-	.	1An	.	.	1dd#X	-re-	.
.	.	8d#X/	.	.	.	.	.	.	.	.	.	.	.	.	.	.	.	.	.	.	.	.
4C/	.	8an/	.	.	.	.	.	.	.	.	.	.	.	.	.	.	.	.	.	.	.	.
.	.	8f#/J)	.	.	.	.	.	.	.	.	.	.	.	.	.	.	.	.	.	.	.	.
!LO:N:vis=2	!	!	!	!	!	!	!	!	!	!	!	!	!	!	!	!	!	!	!	!	!	!
4CC/	2CC\	(>8dd#X\L	.	.	.	.	.	.	.	.	.	.	.	.	.	.	.	.	.	.	.	.
.	.	8a\	.	.	.	.	.	.	.	.	.	.	.	.	.	.	.	.	.	.	.	.
4C/	.	8f#\	.	.	.	.	.	.	.	.	.	.	.	.	.	.	.	.	.	.	.	.
.	.	8d#\J)	.	.	.	.	.	.	.	.	.	.	.	.	.	.	.	.	.	.	.	.
*Xrep	*Xrep	*	*	*	*	*	*	*	*	*	*	*	*	*	*	*	*	*	*	*	*	*
=104	=104	=104	=104	=104	=104	=104	=104	=104	=104	=104	=104	=104	=104	=104	=104	=104	=104	=104	=104	=104	=104	=104
*rep	*rep	*	*	*	*	*	*	*	*	*	*	*	*	*	*	*	*	*	*	*	*	*
!LO:N:vis=2	!	!	!	!	!	!	!	!	!	!	!	!	!	!	!	!	!	!	!	!	!	!
4CC/	2CC\	(>8a-X\L	.	1Fn	.	1Fn	1Fn	-re	.	1fn	1fn	.	.	1fn	-re	.	1Bn	.	.	1ddn	-re	.
.	.	8fn\	.	.	.	.	.	.	.	.	.	.	.	.	.	.	.	.	.	.	.	.
4C/	.	8bn\	.	.	.	.	.	.	.	.	.	.	.	.	.	.	.	.	.	.	.	.
.	.	8a-\J)	.	.	.	.	.	.	.	.	.	.	.	.	.	.	.	.	.	.	.	.
!LO:N:vis=2	!	!	!	!	!	!	!	!	!	!	!	!	!	!	!	!	!	!	!	!	!	!
4CC/	2CC\	(>8ddn\L	.	.	.	.	.	.	.	.	.	.	.	.	.	.	.	.	.	.	.	.
.	.	8b\	.	.	.	.	.	.	.	.	.	.	.	.	.	.	.	.	.	.	.	.
4C/	.	8a-\	.	.	.	.	.	.	.	.	.	.	.	.	.	.	.	.	.	.	.	.
.	.	8f\J)	.	.	.	.	.	.	.	.	.	.	.	.	.	.	.	.	.	.	.	.
*Xrep	*Xrep	*	*	*	*	*	*	*	*	*	*	*	*	*	*	*	*	*	*	*	*	*
=105	=105	=105	=105	=105	=105	=105	=105	=105	=105	=105	=105	=105	=105	=105	=105	=105	=105	=105	=105	=105	=105	=105
*rep	*rep	*	*	*	*	*	*	*	*	*	*	*	*	*	*	*	*	*	*	*	*	*
!LO:N:vis=2	!	!	!	!	!	!	!	!	!	!	!	!	!	!	!	!	!	!	!	!	!	!
4CC/	2CC\	(>8g\L	.	[>1En	.	[>1En	[>1E	no-	.	[>1en	[>1en	.	.	[>1en	no-	.	[>1c	.	.	[>1cc	no-	.
.	.	8en\	.	.	.	.	.	.	.	.	.	.	.	.	.	.	.	.	.	.	.	.
4C/	.	8cc\	.	.	.	.	.	.	.	.	.	.	.	.	.	.	.	.	.	.	.	.
.	.	8g\J	.	.	.	.	.	.	.	.	.	.	.	.	.	.	.	.	.	.	.	.
!LO:N:vis=2	!	!	!	!	!	!	!	!	!	!	!	!	!	!	!	!	!	!	!	!	!	!
4CC/	2CC\	8een\L	.	.	.	.	.	.	.	.	.	.	.	.	.	.	.	.	.	.	.	.
.	.	8cc\	.	.	.	.	.	.	.	.	.	.	.	.	.	.	.	.	.	.	.	.
4C/	.	8gg\	.	.	.	.	.	.	.	.	.	.	.	.	.	.	.	.	.	.	.	.
.	.	8ee\J)	.	.	.	.	.	.	.	.	.	.	.	.	.	.	.	.	.	.	.	.
*Xrep	*Xrep	*	*	*	*	*	*	*	*	*	*	*	*	*	*	*	*	*	*	*	*	*
=106	=106	=106	=106	=106	=106	=106	=106	=106	=106	=106	=106	=106	=106	=106	=106	=106	=106	=106	=106	=106	=106	=106
*rep	*rep	*	*	*	*	*	*	*	*	*	*	*	*	*	*	*	*	*	*	*	*	*
!LO:N:vis=2	!	!	!	!	!	!	!	!	!	!	!	!	!	!	!	!	!	!	!	!	!	!
4CC/	2CC\	(>8ccc\L	.	1EnX]	.	1EnX]	1EX]	.	.	1enX]	1enX]	.	.	1enX]	.	.	1c]	.	.	1cc]	.	.
.	.	8gg\	.	.	.	.	.	.	.	.	.	.	.	.	.	.	.	.	.	.	.	.
4C/	.	8een\	.	.	.	.	.	.	.	.	.	.	.	.	.	.	.	.	.	.	.	.
.	.	8cc\J)	.	.	.	.	.	.	.	.	.	.	.	.	.	.	.	.	.	.	.	.
!LO:N:vis=2	!	!	!	!	!	!	!	!	!	!	!	!	!	!	!	!	!	!	!	!	!	!
4CC/	2CC\	(<8g/L	.	.	.	.	.	.	.	.	.	.	.	.	.	.	.	.	.	.	.	.
.	.	8en/	.	.	.	.	.	.	.	.	.	.	.	.	.	.	.	.	.	.	.	.
4C/	.	8c/	.	.	.	.	.	.	.	.	.	.	.	.	.	.	.	.	.	.	.	.
.	.	8G/J)	.	.	.	.	.	.	.	.	.	.	.	.	.	.	.	.	.	.	.	.
*Xrep	*Xrep	*	*	*	*	*	*	*	*	*	*	*	*	*	*	*	*	*	*	*	*	*
*v	*v	*	*	*	*	*	*	*	*	*	*	*	*	*	*	*	*	*	*	*	*	*
=107	=107	=107	=107	=107	=107	=107	=107	=107	=107	=107	=107	=107	=107	=107	=107	=107	=107	=107	=107	=107	=107
2C 2CC\	2En</	.	2En\	.	2En/	2En\	-bis	.	2en/	2en\	.	.	2en/	-bis	.	2c\	.	.	2cc\	-bis	.
*	*	*	*	*	*v	*v	*	*	*	*	*	*	*	*	*	*	*	*	*	*	*
*	*	*	*	*	*	*	*	*v	*v	*	*	*	*	*	*	*	*	*	*	*
*	*	*	*	*	*X8ba	*	*	*	*	*	*	*	*	*X8ba	*	*	*	*	*
*	*	*	*	*	*^	*	*	*^	*	*	*	*	*	*	*	*	*	*	*
2r	2r	.	2r	.	2r	2ryy	.	.	2r	2ryy	.	.	2r	.	.	2r	.	.	2r	.	.
*	*	*	*	*	*v	*v	*	*	*	*	*	*	*	*	*	*	*	*	*	*	*
*	*	*	*	*	*	*	*	*v	*v	*	*	*	*	*	*	*	*	*	*	*
==	==	==	==	==	==	==	==	==	==	==	==	==	==	==	==	==	==	==	==
*-	*-	*-	*-	*-	*-	*-	*-	*-	*-	*-	*-	*-	*-	*-	*-	*-	*-	*-	*-
!!!system-decoration: [s1][s2][s3,s4][s5,s6][(s7,s8)]
!!!RDF**kern: > = above
!!!RDF**kern: < = below
!!!EED: Antoni Szymański
!!!EST: 2021-06-10
!!!AIN: 1 bass 1 organ 3 soprn 2 tenor
!!!ENC: Marcin Jachim
!!!END: 2021-05-17
